!!!!SEGMENT: pl-kk--kk-i-26--002_anonim--missa-et-in-terra.krn
!!!cenid: 17xx:2216
!!!COM: Anonim
!!!COM-rismID:
!!!CDT:
!!!CNT:
!!!OPR: Missa
!!!OTL: Et in terra
!!!OMV: 002
!!!PDT:
!!!AGN: Sacred; Mass
!!!SMS-siglum: PL-Kk
!!!SMS-shelfmark: Kk.I.26
!!!SMS-shelfwork: 001-002 M
!!!SMS-variant:
!!!SMS-altvar:
!!!NIFC-rismSourceID: 1001156019
!!!NIFC-islandoraID: pl-kk:15411
!!!URL-pdf-islandora: https://repozytorium.nifc.pl/islandora/object/pl-kk%3A15411/datastream/PDF/view
!!!URL-scan:
!!!ONB-nifc: UWAGA: części Mszy: 1. Kyrie, 2. Et in terra, 3. Sanctus, 4. Agnus Dei.
!!!AIN: 1 alto 2 empty 3 tenor
!!!key:
**kern	**text	**kern	**text	**kern	**text	**kern	**text	**kern	**text	**kern	**text
*part6	*part6	*part5	*part5	*part4	*part4	*part3	*part3	*part2	*part2	*part1	*part1
*staff6	*staff6	*staff5	*staff5	*staff4	*staff4	*staff3	*staff3	*staff2	*staff2	*staff1	*staff1
*Iempty	*	*Iempty	*	*Itenor	*	*Itenor	*	*Itenor	*	*Ialto	*
*I"Baſso Ripieno.	*	*I"Baſso.	*	*I"Tenore 2do.	*	*I"Tenore I. Umgante ad libitum	*	*I"Tenore Imo	*	*I"Alto.	*
*I'B rip	*	*I'B	*	*I'T 2	*	*I'T 1	*	*I'T 1	*	*I'A	*
*clefF4	*	*clefF4	*	*clefC4	*	*clefC4	*	*clefC4	*	*clefC3	*
*k[]	*	*k[]	*	*k[]	*	*k[]	*	*k[]	*	*k[]	*
*a:	*	*a:	*	*a:	*	*a:	*	*a:	*	*a:	*
*M2/1	*	*M2/1	*	*M2/1	*	*M2/1	*	*M2/1	*	*M2/1	*
*met(C|)	*	*met(C|)	*	*met(C|)	*	*met(C|)	*	*met(C|)	*	*met(C|)	*
=1	=1	=1	=1	=1	=1	=1	=1	=1	=1	=1	=1
*	*	*	*	*2\right	*	*2\right	*	*2\right	*	*	*
!LO:TX:t=P:problem=w źródle inicjał E na początku pięciolinii	!	!LO:TX:t=P:problem=w źródle inicjał E na początku pięciolinii	!	!	!	!	!	!	!	!	!
!	!	!	!	!LO:TX:t=P:problem=w źródle inicjał E na początku pięciolinii	!	!LO:TX:t=P:problem=w źródle inicjał E na początku pięciolinii	!	!	!	!	!
!	!	!	!	!	!	!	!	!LO:TX:t=P:problem=w źródle inicjał E na początku pięciolinii	!	!LO:TX:t=P:problem=w źródle inicjał E na początku pięciolinii	!
!	!	!	!	!LO:TX:t=P:problem=kreska pseudotaktowa	!	!LO:TX:t=P:problem=kreska pseudotaktowa	!	!	!	!	!
!	!	!	!	!	!	!	!	!LO:TX:t=P:problem=kreska pseudotaktowa	!	!	!
!LO:TX:t=P:problem=kreska pseudotaktowa	!	!LO:TX:t=P:problem=kreska pseudotaktowa	!	!	!	!	!	!	!	!	!
00r	.	00r	.	1r	.	1e	Et	1e	Et	00r	.
.	.	.	.	1A	Et	2A\	in	2A\	in	.	.
.	.	.	.	.	.	2.c\	ter-	2.c\	ter-	.	.
=2-	=2-	=2-	=2-	=2-	=2-	=2-	=2-	=2-	=2-	=2-	=2-
.	.	.	.	2E/	in	.	.	.	.	.	.
.	.	.	.	.	.	8B\L	.	8B\L	.	.	.
.	.	.	.	.	.	8A\J	.	8A\J	.	.	.
.	.	.	.	2.Gn/	ter-	4B\	.	4B\	.	.	.
!	!	!	!	!	!	!LO:TX:t=P:problem=kreska pseudotaktowa	!	!LO:TX:t=P:problem=kreska pseudotaktowa	!	!	!
.	.	.	.	.	.	4c\	.	4c\	.	.	.
.	.	.	.	.	.	2d\	.	2d\	.	.	.
.	.	.	.	8F#X/L	.	.	.	.	.	.	.
.	.	.	.	8E/J	.	.	.	.	.	.	.
!	!	!	!	!	!	!LO:TX:t=P:problem=kreska pseudotaktowa	!	!LO:TX:t=P:problem=kreska pseudotaktowa	!	!	!
.	.	.	.	4F#/	.	2d\	-ra	2d\	-ra	.	.
!	!	!	!	!LO:TX:t=P:problem=kreska pseudotaktowa	!	!	!	!	!	!	!
.	.	.	.	4G/	.	.	.	.	.	.	.
=3	=3	=3	=3	=3	=3	=3	=3	=3	=3	=3-	=3-
*2\right	*	*2\right	*	*	*	*	*	*	*	*2\right	*
!	!	!LO:TX:t=P:problem=kreska pseudotaktowa	!	!	!	!	!	!	!	!LO:TX:t=P:problem=kreska pseudotaktowa	!
1A	Et	1A	Et	4A/	.	4c\	pax	(>4c\	pax	1r	.
.	.	.	.	4G/	.	4B\	.	4B\	.	.	.
.	.	.	.	4A/	.	4c\	.	4c\	.	.	.
!	!	!	!	!LO:TX:t=P:problem=kreska pseudotaktowa	!	!	!	!	!	!	!
.	.	.	.	4B/	.	4d\	.	4d\)	.	.	.
!	!	!	!	!	!	!	!	!LO:TX:t=P:global:problem=kreska oddechu na różnych liniach [rozdzielacz słów / znak oddechu]	!	!	!
!	!	!	!	!	!	!	!	!	!	!LO:TX:t=P:problem=kreska pseudotaktowa	!
2AA/	in	2AA/	in	2.c\	.	2e\	et	2e,<\	.	1e	Et
!	!	!	!	!	!	!LO:TX:t=P:problem=kreska pseudotaktowa	!	!LO:TX:t=P:problem=kreska pseudotaktowa	!	!	!
2.C/	ter-	2.C/	ter-	.	.	2A/	in	2A/	ho-	.	.
!	!	!	!	!LO:TX:t=P:problem=kreska pseudotaktowa	!	!	!	!	!	!	!
.	.	.	.	4d\	.	.	.	.	.	.	.
=4-	=4-	=4-	=4-	=4	=4	=4	=4	=4	=4	=4	=4
.	.	.	.	2e\	.	2E/	ter-	2E/	-mi-	2A/	in
8BB/L	.	8BB/L	.	.	.	.	.	.	.	.	.
8AA/J	.	8AA/J	.	.	.	.	.	.	.	.	.
!	!	!	!	!LO:TX:t=P:global:problem=kreska oddechu na różnych liniach [rozdzielacz słów / znak oddechu]	!	!	!	!	!	!	!
!	!	!	!	!LO:TX:t=P:problem=kreska pseudotaktowa	!	!	!	!	!	!	!
4BB/	.	4BB/	.	2d,<|>\	-ra	2.G/	.	2.G/	.	4d\	ter-
!	!	!LO:TX:t=P:problem=kreska pseudotaktowa	!	!	!	!	!	!	!	!LO:TX:t=P:problem=kreska pseudotaktowa	!
4C/	.	4C/	.	.	.	.	.	.	.	4e\	.
1D	.	1D	.	2d,<\	pax	.	.	.	.	2fn\	.
.	.	.	.	.	.	8F#X/L	.	8F#X/L	.	.	.
.	.	.	.	.	.	8E/J	.	8E/J	.	.	.
!	!	!	!	!	!	!	!	!	!	!LO:TX:t=P:problem=kreska pseudotaktowa	!
.	.	.	.	4A/	ho-	4F#X/	.	4F#X/	.	2f\	ra
!	!	!	!	!LO:TX:t=P:problem=kreska pseudotaktowa	!	!LO:TX:t=P:problem=kreska pseudotaktowa	!	!LO:TX:t=P:problem=kreska pseudotaktowa	!	!	!
.	.	.	.	4B/	.	4G/	.	4G/	.	.	.
=5-	=5-	=5-	=5-	=5	=5	=5	=5	=5	=5	=5	=5
!LO:TX:t=P:global:problem=kreska oddechu na różnych liniach [rozdzielacz słów / znak oddechu]	!	!LO:TX:t=P:global:problem=kreska oddechu na różnych liniach [rozdzielacz słów / znak oddechu]	!	!	!	!	!	!	!	!	!
!	!	!	!	!	!	!	!	!	!	!LO:TX:t=P:global:problem=kreska oddechu na różnych liniach [rozdzielacz słów / znak oddechu]	!
!LO:TX:t=P:problem=kreska pseudotaktowa	!	!LO:TX:t=P:problem=kreska pseudotaktowa	!	!	!	!	!	!	!	!LO:TX:t=P:problem=kreska pseudotaktowa	!
1AA,<	-ra	1AA,<	-ra	2.c\	-mi-	2.A/	.	2.A/	.	1e,<	pax
!	!	!	!	!	!	!	!	!LO:TX:t=P:problem=kreska pseudotaktowa	!	!	!
.	.	.	.	8B\L	.	4A/	-ra	4A/	-ni-	.	.
!	!	!	!	!LO:TX:t=P:problem=kreska pseudotaktowa	!	!	!	!	!	!	!
.	.	.	.	8A\J	.	.	.	.	.	.	.
2E,<\	pax	2E\	pax	1.B	.	2G/	pax	2G,</	-b(us)	2r	.
*	*	*	*	*	*	*	*	*	*ij	*	*
!LO:TX:t=P:problem=kreska pseudotaktowa	!	!	!	!	!	!LO:TX:t=P:problem=kreska pseudotaktowa	!	!LO:TX:t=P:problem=kreska pseudotaktowa	!	!LO:TX:t=P:problem=kreska pseudotaktowa	!
2D\	.	2D\	.	.	.	2F#X/	ho-	2F#X/	ho-	2f#X\	ho-
=6	=6	=6-	=6-	=6-	=6-	=6	=6	=6	=6	=6	=6
!	!	!LO:TX:t=P:problem=kreska pseudotaktowa	!	!	!	!	!	!	!	!	!
1C	ho-	1C	ho-	.	.	1.E	-mi-	1.E	-mi-	2g\	.
!	!	!	!	!LO:TX:t=P:problem=kreska pseudotaktowa	!	!	!	!	!	!LO:TX:t=P:problem=kreska pseudotaktowa	!
.	.	.	.	2A/	.	.	.	.	.	2e\	.
2.BB/	-mi-	2.BB/	-mi-	2G/	.	.	.	.	.	2.B/	-mi-
*	*	*	*	*	*	*custos:E	*	*	*	*	*
!	!	!	!	!	!	!LO:TX:t=P:problem=kreska pseudotaktowa	!	!LO:TX:t=P:problem=kreska pseudotaktowa	!	!	!
.	.	.	.	2F#X/	-ni-	2D#X/	-ni-	2D#X/	-ni-	.	.
!	!	!	!	!	!	!	!	!	!	!LO:TX:t=P:problem=kreska pseudotaktowa	!
4BB/	-ni-	4BB/	-ni-	.	.	.	.	.	.	4B/	-ni-
!	!	!	!	!	!	!LO:LB:g=original	!	!	!	!	!
=7-	=7-	=7-	=7-	=7-	=7-	=7	=7	=7	=7	=7	=7
!	!	!	!	!	!	!LO:TX:t=P:global:problem=kreska oddechu na różnych liniach [rozdzielacz słów / znak oddechu]	!	!	!	!	!
!LO:TX:t=P:problem=kreska pseudotaktowa	!	!LO:TX:t=P:problem=kreska pseudotaktowa	!	!	!	!	!	!	!	!LO:TX:t=P:problem=kreska pseudotaktowa	!
1E,<	-bus	1E,<	-bus	2E,</	-bus	2E,</	-bus	2E,</	-bus	1B,<	-bus
*	*	*	*	*	*	*	*	*	*Xij	*	*
!	!	!	!	!	!	!LO:TX:t=P:problem=kreska pseudotaktowa	!	!LO:TX:t=P:problem=kreska pseudotaktowa	!	!	!
!	!	!	!	!	!	!LO:TX:a:t=P:problem=w źródle możliwa ligatura	!	!	!	!	!
.	.	.	.	1E	bo-	(<2e\	bo-	2e\	bo-	.	.
!	!	!	!	!	!	!	!	!LO:LB:g=original	!	!	!
0r	.	0r	.	.	.	2e\)	.	(>2e\	-nae	0r	.
!	!	!	!	!LO:TX:t=P:problem=kreska pseudotaktowa	!	!LO:TX:t=P:problem=kreska pseudotaktowa	!	!LO:TX:t=P:problem=kreska pseudotaktowa	!	!	!
.	.	.	.	2F#X/	-nae	2d\	-nae	2d\)	.	.	.
!	!	!	!	!LO:LB:g=original	!	!	!	!	!	!	!
=8-	=8-	=8-	=8-	=8	=8	=8	=8	=8	=8	=8-	=8-
.	.	.	.	2Gn/	Vo-	2B\	Vo-	2B\	Vo-	.	.
!	!	!	!	!LO:TX:t=P:problem=kreska pseudotaktowa	!	!LO:TX:t=P:problem=kreska pseudotaktowa	!	!LO:TX:t=P:problem=kreska pseudotaktowa	!	!	!
.	.	.	.	2E/	-lun-	2c\	-lun-	2c\	.	.	.
!LO:TX:t=P:problem=kreska pseudotaktowa	!	!LO:TX:t=P:problem=kreska pseudotaktowa	!	!	!	!	!	!	!	!LO:TX:t=P:problem=kreska pseudotaktowa	!
1r	.	1r	.	4F#X/	-ta-	2d\	-ta-	2d\	-lun-	1r	.
.	.	.	.	4G/	.	.	.	.	.	.	.
!	!	!	!	!	!	!	!	!LO:TX:t=P:problem=kreska pseudotaktowa	!	!	!
.	.	.	.	1A\	.	2c\	.	2c\	.	.	.
!LO:LB:g=original	!	!	!	!	!	!	!	!	!	!	!
=9	=9	=9	=9	=9-	=9-	=9-	=9-	=9	=9	=9	=9
!	!	!	!	!	!	!	!	!LO:TX:t=P:problem=kreska pseudotaktowa	!	!	!
2r	.	2r	.	.	.	1B	.	1B	-ta-	2r	.
!LO:TX:t=P:problem=kreska pseudotaktowa	!	!LO:TX:t=P:problem=kreska pseudotaktowa	!	!LO:TX:t=P:problem=kreska pseudotaktowa	!	!	!	!	!	!LO:TX:t=P:problem=kreska pseudotaktowa	!
2E\	Lau-	2E\	Lau-	2G#X/	.	.	.	.	.	2e\	Lau-
!	!	!	!	!	!	!LO:TX:t=P:problem=kreska pseudotaktowa	!	!LO:TX:t=P:problem=kreska pseudotaktowa	!	!	!
2.F\	-da-	2.F\	-da-	2A,<\	-tis.	1A	-tis.	1A,<	-tis.	2.c\	-da-
!	!	!	!	!LO:TX:t=P:problem=kreska pseudotaktowa	!	!	!	!	!	!	!
.	.	.	.	2A\	Lau-	.	.	.	.	.	.
!LO:TX:t=P:problem=kreska pseudotaktowa	!	!LO:TX:t=P:problem=kreska pseudotaktowa	!	!	!	!	!	!	!	!LO:TX:t=P:problem=kreska pseudotaktowa	!
4F\	-m(us)	4F\	-m(us)	.	.	.	.	.	.	4d\	-m(us)
=10	=10	=10	=10	=10	=10	=10	=10	=10	=10	=10	=10
2E,<\	Te	2E,<\	Te	2.c\	-da-	0r	.	0r	.	2e,<\	Te
!LO:TX:t=P:problem=kreska pseudotaktowa	!	!LO:TX:t=P:problem=kreska pseudotaktowa	!	!	!	!	!	!	!	!LO:TX:t=P:problem=kreska pseudotaktowa	!
2C/	be-	2C/	be-	.	.	.	.	.	.	2e\	be-
!	!	!	!	!LO:TX:t=P:problem=kreska pseudotaktowa	!	!	!	!	!	!	!
.	.	.	.	4c\	-m(us)	.	.	.	.	.	.
2E\	-ne-	2E\	-ne-	2B,<\	.	.	.	.	.	2g\	-ne-
!	!	!	!	!LO:TX:t=P:problem=kreska pseudotaktowa	!	!	!	!	!	!LO:TX:t=P:problem=kreska pseudotaktowa	!
1G\	-di-	1G\	-di-	2G/	be-	.	.	.	.	2d\	.
!	!	!	!	!	!	!	!	!	!	!LO:LB:g=original	!
=11-	=11-	=11-	=11-	=11	=11	=11-	=11-	=11-	=11-	=11	=11
!	!	!	!	!	!	!LO:TX:t=P:problem=kreska pseudotaktowa	!	!LO:TX:t=P:problem=kreska pseudotaktowa	!	!	!
.	.	.	.	2B\	-ne-	1r	.	1r	.	(>2d\	-di-
!LO:TX:t=P:problem=kreska pseudotaktowa	!	!LO:TX:t=P:problem=kreska pseudotaktowa	!	!	!	!	!	!	!	!LO:TX:t=P:problem=kreska pseudotaktowa	!
2F#X\	.	2F#X\	.	1d	-di-	.	.	.	.	2a\)	.
!	!	!LO:LB:g=original	!	!	!	!	!	!	!	!	!
2.E\	-ci-	2.E\	-ci-	.	.	1.G	a-	1.G	a-	2g\	-ci-
!	!	!	!	!LO:TX:t=P:problem=kreska pseudotaktowa	!	!	!	!	!	!LO:TX:t=P:problem=kreska pseudotaktowa	!
.	.	.	.	2c\	.	.	.	.	.	2cn/	-mus
!LO:TX:t=P:problem=kreska pseudotaktowa	!	!LO:TX:t=P:problem=kreska pseudotaktowa	!	!	!	!	!	!	!	!	!
4E\	-m(us)	4E\	-m(us)	.	.	.	.	.	.	.	.
=12	=12	=12	=12	=12	=12	=12-	=12-	=12-	=12-	=12	=12
2D,<\	Te,	2D,<\	Te,	2B\	.	.	.	.	.	2d\	Te
!	!	!	!	!	!	!LO:TX:t=P:problem=kreska pseudotaktowa	!	!LO:TX:t=P:problem=kreska pseudotaktowa	!	!LO:TX:t=P:problem=kreska pseudotaktowa	!
1D	a-	1D	a-	4A/	-ci-	2F#X/	-do-	2F#X/	-do-	2r	.
!	!	!	!	!LO:TX:t=P:problem=kreska pseudotaktowa	!	!	!	!	!	!	!
.	.	.	.	4G/	-m(us)	.	.	.	.	.	.
!	!	!	!	!	!	!	!	!LO:TX:t=P:problem=kreska pseudotaktowa	!	!	!
.	.	.	.	2F#X,</	Te,	1A	-ra-	1A	-ra-	1r	.
!LO:TX:t=P:problem=kreska pseudotaktowa	!	!LO:TX:t=P:problem=kreska pseudotaktowa	!	!	!	!	!	!	!	!	!
2Cn/	-do-	2Cn/	-do-	1A\	a-	.	.	.	.	.	.
=13	=13	=13	=13	=13-	=13-	=13-	=13-	=13	=13	=13-	=13-
!	!	!	!	!	!	!	!	!	!	!LO:TX:t=P:problem=kreska pseudotaktowa	!
2.BB/	-ra-	2.BB/	-ra-	.	.	2.B\	.	2.B\	.	0r	.
!	!	!	!	!LO:TX:t=P:problem=kreska pseudotaktowa	!	!	!	!	!	!	!
.	.	.	.	2G#X/	-do-	.	.	.	.	.	.
!LO:TX:t=P:problem=kreska pseudotaktowa	!	!LO:TX:t=P:problem=kreska pseudotaktowa	!	!	!	!	!	!LO:TX:t=P:problem=kreska pseudotaktowa	!	!	!
4BB/	-m(us)	4BB/	-m(us)	.	.	4B\	-m(us)	4B\	-mus	.	.
2AA,</	Te,	2AA,</	Te,	2.c\	-ra-	2E/	Te!	2E/	Te.	.	.
!LO:TX:t=P:problem=kreska pseudotaktowa	!	!LO:TX:t=P:problem=kreska pseudotaktowa	!	!	!	!LO:TX:t=P:problem=kreska pseudotaktowa	!	!LO:TX:t=P:problem=kreska pseudotaktowa	!	!	!
2A\	glo-	2A\	glo-	.	.	2r	.	2r	.	.	.
!	!	!	!	!LO:TX:t=P:problem=kreska pseudotaktowa	!	!	!	!	!	!	!
.	.	.	.	4c\	-m(us)	.	.	.	.	.	.
=14	=14	=14	=14	=14	=14	=14	=14	=14	=14	=14	=14
2A\	-ri-	2A\	-ri-	2c,<\	Te	2r	.	2r	.	2r	.
!LO:TX:t=P:problem=kreska pseudotaktowa	!	!LO:TX:t=P:problem=kreska pseudotaktowa	!	!LO:TX:t=P:problem=kreska pseudotaktowa	!	!LO:TX:t=P:problem=kreska pseudotaktowa	!	!LO:TX:t=P:problem=kreska pseudotaktowa	!	!LO:TX:t=P:problem=kreska pseudotaktowa	!
2G#X\	-fi-	2G#X\	-fi-	2B\	glo-	2e\	glo-	2e\	glo-	2e\	glo-
(>2A\	-ca-	2A\	-ca-	2c\	-ri-	2e\	-ri-	2e\	-ri-	2e\	-ri-
!LO:TX:t=P:problem=kreska pseudotaktowa	!	!LO:TX:t=P:problem=kreska pseudotaktowa	!	!	!	!LO:TX:t=P:problem=kreska pseudotaktowa	!	!LO:TX:t=P:problem=kreska pseudotaktowa	!	!LO:TX:t=P:problem=kreska pseudotaktowa	!
2F\)	.	2F\	.	2A/	-fi-	2d\	-fi-	2d\	-fi-	2e\	-fi-
=15	=15	=15	=15	=15-	=15-	=15	=15	=15	=15	=15	=15
1.E	.	1.E	.	2G#X/	-ca-	2e\	-ca-	2e\	-ca-	2e\	-ca-
!	!	!	!	!	!	!	!	!	!	!LO:TX:t=P:problem=kreska pseudotaktowa	!
.	.	.	.	1A	-m(us)	4d\	.	4d\	.	2a\	.
!	!	!	!	!	!	!	!	!LO:TX:t=P:problem=kreska pseudotaktowa	!	!	!
.	.	.	.	.	.	4c\	.	4c\	.	.	.
!	!	!	!	!	!	!	!	!	!	!LO:TX:t=P:LO:N:vis=1.:problem	!
.	.	.	.	.	.	2.B\	.	2.B\	.	2e\	.
!	!	!	!	!	!	!	!	!	!	!LO:TX:t=P:problem=kreska pseudotaktowa	!
2E\	-mus	2E\	-mus	2G#X/	.	.	.	.	.	2e\	-m(us)
!	!	!	!	!	!	!LO:TX:t=P:problem=kreska pseudotaktowa	!	!LO:TX:t=P:problem=kreska pseudotaktowa	!	!	!
.	.	.	.	.	.	4B\	-m(us)	4B\	-m(us)	.	.
!	!	!	!	!	!	!LO:LB:g=original	!	!	!	!	!
=16-	=16-	=16-	=16-	=16-	=16-	=16	=16	=16	=16	=16	=16
!LO:TX:t=P:problem=kreska pseudotaktowa	!	!LO:TX:t=P:problem=kreska pseudotaktowa	!	!LO:TX:t=P:problem=kreska pseudotaktowa	!	!	!	!	!	!LO:TX:t=P:problem=kreska pseudotaktowa	!
1AA,<	Te!	1AA,<	Te!	1A,<	Te	2c,<\	Te.	2c,<\	Te.	1e,<	Te.
.	.	.	.	.	.	2.e\	Gra-	2.e\	Gra-	.	.
!	!	!	!	!LO:PB:g=original	!	!	!	!	!	!	!
2.A\	Gra-	2.A\	Gra-	2.c\	Gra-	.	.	.	.	2.e\	Gra-
.	.	.	.	.	.	4d\	-ti-	4d\	-ti-	.	.
*	*	*	*	*	*	*	*	*custos:c	*	*	*
!	!	!	!	!	!	!	!	!LO:TX:t=P:problem=kreska pseudotaktowa	!	!	!
!	!	!	!	!	!	!LO:TX:t=P:problem=kreska pseudotaktowa	!	!	!	!	!
!	!	!	!	!	!	!LO:TX:a:t=P:problem=w źródle możliwa ligatura	!	!LO:TX:a:t=P:problem=w źródle możliwa ligatura	!	!	!
.	.	.	.	.	.	(<2c\	-as	(<2c\	-as	.	.
!	!	!	!	!LO:TX:t=P:problem=kreska pseudotaktowa	!	!	!	!	!	!LO:TX:t=P:problem=kreska pseudotaktowa	!
4G\	-ti-	4G\	-ti-	4B\	-ti-	.	.	.	.	4e\	-ti-
!	!	!	!	!	!	!	!	!LO:LB:g=original	!	!	!
=17-	=17-	=17-	=17-	=17	=17	=17	=17	=17	=17	=17	=17
!LO:TX:t=P:problem=kreska pseudotaktowa	!	!LO:TX:t=P:problem=kreska pseudotaktowa	!	!LO:TX:t=P:problem=kreska pseudotaktowa	!	!	!	!	!	!LO:TX:t=P:problem=kreska pseudotaktowa	!
1Fn	-as	1Fn	-as	1A	-as	2c\)	.	2c\)	.	1f,<	-as
!	!	!	!	!	!	!	!	!LO:TX:t=P::problem=kreska pseudotaktowa&colon;między nutą a kropką	!	!	!
.	.	.	.	.	.	2.f\	a-	2.f\	a-	.	.
!LO:LB:g=original	!	!	!	!	!	!	!	!	!	!	!
2.B-X\	a-	2.B-X\	a-	2.d\	a-	.	.	.	.	2.d\	a-
.	.	.	.	.	.	4e\	-gi-	4e\	-gi-	.	.
!	!	!	!	!	!	!LO:TX:t=P:problem=kreska pseudotaktowa	!	!LO:TX:t=P:problem=kreska pseudotaktowa	!	!	!
.	.	.	.	.	.	2d\	-m(us)	2d\	-m(us)	.	.
!LO:TX:t=P:problem=kreska pseudotaktowa	!	!LO:TX:t=P:problem=kreska pseudotaktowa	!	!LO:TX:t=P:problem=kreska pseudotaktowa	!	!	!	!	!	!LO:TX:t=P:problem=kreska pseudotaktowa	!
4A\	-gi-	4A\	-gi-	4c\	-gi-	.	.	.	.	4d\	-gi-
=18	=18	=18	=18	=18	=18	=18	=18	=18	=18	=18	=18
2G\	-m(us)	2G\	-m(us)	2B-X,<\	-mus	4e\	.	4e\	Ti-	2d,<\	-m(us)
.	.	.	.	.	.	4d\	.	4d\	.	.	.
4G\	Ti-	4G\	Ti-	4B-\	Ti-	1d	Ti-	1d	.	(>4e\	Ti-
!LO:TX:t=P:problem=kreska pseudotaktowa	!	!LO:TX:t=P:problem=kreska pseudotaktowa	!	!LO:TX:t=P:problem=kreska pseudotaktowa	!	!	!	!	!	!LO:TX:t=P:problem=kreska pseudotaktowa	!
4F\	.	4F\	.	4A\	.	.	.	.	.	4f\)	.
4E\	.	4E\	.	4G/	.	.	.	.	.	4g\	.
4D/	.	4D\	.	4F/	.	.	.	.	.	4f\	.
!	!	!	!	!LO:TX:t=P:problem=kreska pseudotaktowa	!	!	!	!	!	!LO:TX:t=P:problem=kreska pseudotaktowa	!
2E\	.	2E\	.	2G/	.	2c#X\	.	2c#X\	.	2e\	.
=19-	=19-	=19-	=19-	=19	=19	=19-	=19-	=19-	=19-	=19	=19
!LO:TX:t=P:problem=kreska pseudotaktowa	!	!LO:TX:t=P:problem=kreska pseudotaktowa	!	!	!	!LO:TX:t=P:problem=kreska pseudotaktowa	!	!LO:TX:t=P:problem=kreska pseudotaktowa	!	!	!
1D,<	-bi.	1D,<	-bi.	2F#X,</	-bi	1d	-bi!	1d,<	-bi!	2f#X\	-bi
!	!	!	!	!	!	!	!	!	!	!LO:TX:t=P:problem=kreska pseudotaktowa	!
.	.	.	.	2.A\	prop-	.	.	.	.	2r	.
!	!	!LO:PB:g=original	!	!	!	!	!	!	!	!LO:LB:g=original	!
2.D\	prop-	2.D/	prop-	.	.	0r	.	0r	.	2.f#\	prop-
.	.	.	.	4A\	-ter	.	.	.	.	.	.
!	!	!	!	!LO:TX:t=P:problem=kreska pseudotaktowa	!	!	!	!	!	!	!
.	.	.	.	2Bn\	mag-	.	.	.	.	.	.
!LO:TX:t=P:problem=kreska pseudotaktowa	!	!LO:TX:t=P:problem=kreska pseudotaktowa	!	!	!	!	!	!	!	!LO:TX:t=P:problem=kreska pseudotaktowa	!
4D\	-ter	4D/	-ter	.	.	.	.	.	.	4f#\	-ter
=20	=20	=20	=20	=20	=20	=20-	=20-	=20-	=20-	=20	=20
2E\	mag-	2En\	mag-	2G,</	-na(m)	.	.	.	.	2g\	mag-
!LO:TX:t=P:problem=kreska pseudotaktowa	!	!LO:TX:t=P:problem=kreska pseudotaktowa	!	!	!	!	!	!	!	!LO:TX:t=P:problem=kreska pseudotaktowa	!
2C,</	-nam	2C/	-nam	2.c\	glo-	.	.	.	.	2g\	-na(m)
!	!	!	!	!	!	!LO:TX:t=P:problem=kreska pseudotaktowa	!	!LO:TX:t=P:problem=kreska pseudotaktowa	!	!	!
!	!	!	!	!	!	!LO:TX:b:Bi:t=Vertat	!	!	!	!	!
4E\	.	4E\	.	.	.	1r	.	1r	.	4g\	glo-
4F\	glo-	4F\	glo-	4c\	-ri-	.	.	.	.	8fn\L	.
.	.	.	.	.	.	.	.	.	.	8e\J	.
!	!	!	!	!	!	!	!	!	!	!LO:TX:t=P:problem=kreska pseudotaktowa	!
1G\	-ri-	1G\	-ri-	2B\	-am	.	.	.	.	2d\	.
!	!	!	!	!	!	!LO:PB:g=original	!	!	!	!	!
=21-	=21-	=21-	=21-	=21-	=21-	=21	=21	=21-	=21-	=21	=21
!	!	!	!	!LO:TX:t=P:problem=kreska pseudotaktowa	!	!	!	!	!	!	!
.	.	.	.	1A	tu-	2.d\	Do-	2.d\	Do-	2e|>\	-ri-
!LO:TX:t=P:problem=kreska pseudotaktowa	!	!LO:TX:t=P:problem=kreska pseudotaktowa	!	!	!	!	!	!	!	!LO:TX:t=P:problem=kreska pseudotaktowa	!
2F#X\	-am	2F#X\	-am	.	.	.	.	.	.	2f#X|>\	-am
!	!	!	!	!	!	!LO:TX:t=P:problem=kreska pseudotaktowa	!	!LO:TX:t=P:problem=kreska pseudotaktowa	!	!	!
.	.	.	.	.	.	4c\	-mi-	4cny\	-mi-	.	.
!	!	!LO:TX:t=P:problem=kreska pseudotaktowa	!	!	!	!	!	!	!	!	!
1G	tu-	1G	tu-	2G,</	-am.	2B\	-ne	2B\	-ne	(>2g\	Tu-
!	!	!	!	!LO:TX:t=P::problem=kreska pseudotaktowa&colon;między nutą a kropką	!	!	!	!	!	!LO:TX:t=P:problem=kreska pseudotaktowa	!
.	.	.	.	2.G/	Do-	2.d\	De-	2.d\	De-	2d\)	.
=22-	=22-	=22	=22	=22	=22	=22-	=22-	=22-	=22-	=22	=22
!LO:TX:t=P:problem=kreska pseudotaktowa	!	!LO:TX:t=P:problem=kreska pseudotaktowa	!	!	!	!	!	!	!	!LO:TX:t=P:problem=kreska pseudotaktowa	!
1D,<	-am	1D,<	-am	.	.	.	.	.	.	1d,<	-am
.	.	.	.	4G/	-mi-	8c\L	.	8c\L	.	.	.
.	.	.	.	.	.	8B\J	.	8B\J	.	.	.
!	!	!	!	!LO:TX:t=P:problem=kreska pseudotaktowa	!	!	!	!	!	!	!
.	.	.	.	2F#X/	-ne	4A/	.	4A/	.	.	.
!	!	!	!	!	!	!LO:TX:t=P:problem=kreska pseudotaktowa	!	!LO:TX:t=P:problem=kreska pseudotaktowa	!	!	!
.	.	.	.	.	.	4A/	-us	4A,</	-us	.	.
2r	.	2r	.	4G/	De-	4B\	Rex	(>4B\	Rex	2r	.
.	.	.	.	4A/	.	4c\	.	4c\	.	.	.
2.G\	Do-	2.G\	Do-	(<4Bn/	-us	4d\	.	4d\	.	2.d\	Do-
!	!	!	!	!LO:TX:t=P:problem=kreska pseudotaktowa	!	!LO:TX:t=P:problem=kreska pseudotaktowa	!	!LO:TX:t=P:problem=kreska pseudotaktowa	!	!	!
.	.	.	.	4c\)	.	4c\	.	4c\)	.	.	.
=23-	=23-	=23-	=23-	=23	=23	=23	=23	=23	=23	=23-	=23-
.	.	.	.	4d\	Rex	2B\	.	2B\	.	.	.
4F\	-mi-	4F\	-mi-	4B\	.	.	.	.	.	4d\	-mi-
!LO:TX:t=P:problem=kreska pseudotaktowa	!	!LO:TX:t=P:problem=kreska pseudotaktowa	!	!LO:TX:t=P::problem=kreska pseudotaktowa&colon;między nutą a kropką	!	!LO:TX:t=P:problem=kreska pseudotaktowa	!	!LO:TX:t=P:problem=kreska pseudotaktowa	!	!LO:TX:t=P:problem=kreska pseudotaktowa	!
2E\	-ne	2E\	-ne	2.e\	.	2G/	cae-	2G/	cae-	2e\	-ne
!	!	!	!	!LO:LB:g=original	!	!	!	!	!	!	!
2.A\	De-	2.A\	De-	.	.	2.c\	-le-	2.c\	-le-	2e\	De-
.	.	.	.	4d\	.	.	.	.	.	.	.
!	!	!	!	!LO:TX:t=P::problem=kreska pseudotaktowa&colon;między nutą a kropką	!	!	!	!	!	!LO:TX:t=P:problem=kreska pseudotaktowa	!
.	.	.	.	2.c\	Cae-	.	.	.	.	2e\	-(us)
!	!	!LO:TX:t=P:problem=kreska pseudotaktowa	!	!	!	!LO:TX:t=P:problem=kreska pseudotaktowa	!	!	!	!	!
4G,<\	-us	4G\	-us	.	.	4B\	.	4B\	.	.	.
=24-	=24-	=24	=24	=24	=24	=24	=24	=24-	=24-	=24	=24
4F\	Rex	4F\	Rex	.	.	4A\	.	4A\	.	(>4a\	Rex
4E\	.	4E\	.	8d\L	.	8B\L	.	8B\L	.	4g\)	.
.	.	.	.	8e\J	.	8c\J	.	8c\J	.	.	.
!	!	!	!	!LO:TX:t=P:problem=kreska pseudotaktowa	!	!	!	!	!	!	!
!	!	!	!	!LO:TX:a:t=P:problem=w źródle możliwa ligatura	!	!	!	!	!	!	!
4D/	cae-	4D/	cae-	(<2f\	.	1d	.	1d	.	(>4f\	cae-
!	!	!LO:TX:t=P:problem=kreska pseudotaktowa	!	!	!	!	!	!	!	!LO:TX:t=P:problem=kreska pseudotaktowa	!
4C/	.	4C/	.	.	.	.	.	.	.	4e\)	.
2BB/	-le-	2BB/	-le-	2f\)	.	.	.	.	.	(>2d\	-le-
!LO:TX:t=P:problem=kreska pseudotaktowa	!	!LO:TX:t=P:problem=kreska pseudotaktowa	!	!LO:TX:t=P:problem=kreska pseudotaktowa	!	!	!	!	!	!LO:TX:t=P:problem=kreska pseudotaktowa	!
2C/	.	2C/	.	2e\	.	1c\	.	1c\	.	2e\)	.
!LO:LB:g=original	!	!	!	!	!	!	!	!	!	!	!
=25	=25	=25	=25	=25	=25	=25-	=25-	=25-	=25-	=25	=25
!	!	!	!	!LO:TX:t=P:problem=kreska pseudotaktowa	!	!	!	!	!	!	!
2F\	.	2F\	.	1d	-les-	.	.	.	.	(>2f\	.
*	*	*	*	*	*	*	*	*custos:c	*	*custos:c	*
!	!	!	!	!	!	!	!	!LO:TX:t=P:problem=kreska pseudotaktowa	!	!	!
!LO:TX:t=P:problem=kreska pseudotaktowa	!	!LO:TX:t=P:problem=kreska pseudotaktowa	!	!	!	!LO:TX:t=P:problem=kreska pseudotaktowa	!	!	!	!LO:TX:t=P:problem=kreska pseudotaktowa	!
2G\	.	2G\	.	.	.	2B\	.	2B\	.	2d\)	.
!	!	!	!	!	!	!	!	!LO:PB:g=original	!	!LO:PB:g=original	!
2C,</	-stis	2C,</	-stis	2e,<\	-tis	2c,<\	-stis	2c,<\	-stis	2c,<\	-stis
!	!	!	!	!	!	!	!	!	!	!LO:TX:t=P:problem=kreska pseudotaktowa	!
1C/	De-	1C/	De-	1c\	De-	1e\	De-	1e\	De-	2e\	De-
=26-	=26-	=26-	=26-	=26-	=26-	=26-	=26-	=26-	=26-	=26	=26
.	.	.	.	.	.	.	.	.	.	2e,<\	-us
!LO:TX:t=P:problem=kreska pseudotaktowa	!	!LO:TX:t=P:problem=kreska pseudotaktowa	!	!	!	!LO:TX:t=P:problem=kreska pseudotaktowa	!	!LO:TX:t=P:problem=kreska pseudotaktowa	!	!LO:TX:t=P:problem=kreska pseudotaktowa	!
2GG/	-us	2GG/	-us	2B\	-us	2d\	-us	2d\	-us	2d\	Pa-
!LO:TX:t=P:problem=kreska pseudotaktowa	!	!	!	!LO:TX:t=P:problem=kreska pseudotaktowa	!	!LO:TX:t=P:problem=kreska pseudotaktowa	!	!LO:TX:t=P:problem=kreska pseudotaktowa	!	!	!
1AA	Pa-	1AA	Pa-	1A	Pa-	1c	Pa-	1c	Pa-	2c,</	-ter
*	*	*	*	*	*	*	*	*	*	*	*ij
!	!	!	!	!	!	!	!	!	!	!LO:TX:t=P:problem=kreska pseudotaktowa	!
.	.	.	.	.	.	.	.	.	.	2c/	Pa-
=27	=27	=27-	=27-	=27	=27	=27	=27	=27	=27	=27	=27
!LO:TX:t=P:problem=nadmiarowy takt w T1 ad libitum	!	!LO:TX:t=P:problem=nadmiarowy takt w T1 ad libitum	!	!LO:TX:t=P:problem=nadmiarowy takt w T1 ad libitum	!	!	!	!LO:TX:t=P:problem=nadmiarowy takt w T1 ad libitum	!	!LO:TX:t=P:problem=nadmiarowy takt w T1 ad libitum	!
0ryy	.	0ryy	.	0ryy	.	2c,<\	-ter	0ryy	.	0ryy	.
.	.	.	.	.	.	2B\	De-	.	.	.	.
.	.	.	.	.	.	1A	-us	.	.	.	.
=28	=28	=28-	=28-	=28	=28	=28-	=28-	=28	=28	=28	=28
2AA,</	-ter	2AA,</	-ter	2A,</	-ter	2A,</	Pa-	2c,<\	-ter	2e,<\	-ter
*	*	*	*	*	*	*	*	*	*	*	*Xij
!LO:TX:t=P:problem=kreska pseudotaktowa	!	!LO:TX:t=P:problem=kreska pseudotaktowa	!	!LO:TX:t=P:problem=kreska pseudotaktowa	!	!	!	!	!	!LO:TX:t=P:problem=kreska pseudotaktowa	!
!	!	!	!	!	!	!LO:TX:a:t=P:problem=w źródle mozliwa ligatura	!	!	!	!	!
2C/	O-	2C/	O-	2Gn/	Om-	(<2Gn/	-ter	2e\	Om-	2e\	Om-
!	!	!LO:LB:g=original	!	!	!	!	!	!	!	!	!
1.BB	-mni-	1.BB	-mni-	2G/	-ni-	2G/)	.	2d#X\	-ni-	1.B	-ni-
.	.	.	.	(<4F#X/	.	4F#X/	O-	1e\	-po-	.	.
!	!	!	!	!LO:TX:t=P:problem=kreska pseudotaktowa	!	!LO:TX:t=P:problem=kreska pseudotaktowa	!	!	!	!	!
.	.	.	.	4E/)	.	4E/	.	.	.	.	.
!	!	!	!	!	!	!LO:LB:g=original	!	!	!	!	!
=29-	=29-	=29-	=29-	=29	=29	=29	=29	=29-	=29-	=29-	=29-
.	.	.	.	2.F#X/	.	2.F#X/	-mni-	.	.	.	.
!LO:TX:t=P:problem=kreska pseudotaktowa	!	!LO:TX:t=P:problem=kreska pseudotaktowa	!	!	!	!	!	!	!	!LO:TX:t=P:problem=kreska pseudotaktowa	!
2BB/	-po-	2BB/	-po-	.	.	.	.	2d#X\	.	2B/	-po-
!	!	!	!	!LO:TX:t=P:problem=kreska pseudotaktowa	!	!LO:TX:t=P:problem=kreska pseudotaktowa	!	!	!	!	!
.	.	.	.	4F#/	-po-	4F#/	-po-	.	.	.	.
!	!	!	!	!	!	!	!	!LO:TX:t=P:problem=kreska pseudotaktowa	!	!	!
2E,<\	-tens	2E,<\	-tens	2G,</	-tens.	2G,</	-tens	1e,<	-tens	2B,</	-tens
!LO:TX:t=P::problem=kreska pseudotaktowa&colon;między nutą a kropką	!	!	!	!	!	!	!	!	!	!	!
2.E\	Do-	2.E\	Do-	2.G/	Do-	2.G/	Do-	.	.	2.g\	Do-
=30	=30	=30-	=30-	=30-	=30-	=30-	=30-	=30	=30	=30-	=30-
.	.	.	.	.	.	.	.	2r	.	.	.
4E\	-mi-	4E\	-mi-	4G/	-mi-	4G/	-mi-	.	.	4g\	-mi-
!LO:TX:t=P:problem=kreska pseudotaktowa	!	!LO:TX:t=P:problem=kreska pseudotaktowa	!	!LO:TX:t=P:problem=kreska pseudotaktowa	!	!LO:TX:t=P:problem=kreska pseudotaktowa	!	!LO:TX:t=P::problem=kreska pseudotaktowa&colon;między nutą a kropką	!	!	!
2F#X\	-ne	2F#X\	-ne	2A\	-ne	2A/	-ne	(>2.d\	Do-	4f#X\	-ne
!	!	!	!	!	!	!	!	!	!	!LO:TX:t=P:problem=kreska pseudotaktowa	!
.	.	.	.	.	.	.	.	.	.	4e\	.
!	!	!	!	!	!	!	!	!	!	!LO:TX:t=P:problem=kreska pseudotaktowa	!
(>2G\	Fi-	(>2G\	Fi-	4B\	Fi-	(>4B\	Fi-	.	.	1d	Fi-
.	.	.	.	4A\	.	4A\	.	4d\)	-mi-	.	.
!LO:TX:t=P:problem=kreska pseudotaktowa	!	!LO:TX:t=P:problem=kreska pseudotaktowa	!	!	!	!	!	!LO:TX:t=P:problem=kreska pseudotaktowa	!	!	!
2GG/)	.	2GG/)	.	4B\	.	4B\	.	2e\	-ne	.	.
!	!	!	!	!	!	!LO:TX:t=P:problem=kreska pseudotaktowa	!	!	!	!	!
.	.	.	.	4c\	.	4c\)	.	.	.	.	.
=31	=31	=31	=31	=31-	=31-	=31	=31	=31	=31	=31	=31
2D,<\	-li	2D,<\	-li	2d\	.	2d\	.	2.fn\	Fi-	2d,<\	-li
!	!	!	!	!LO:TX:t=P:problem=kreska pseudotaktowa	!	!LO:TX:t=P:problem=kreska pseudotaktowa	!	!	!	!	!
1D	U-	1D	U-	2A\	-li	2A,<\	-li	.	.	1d\	u-
!	!	!	!	!	!	!	!	!LO:TX:t=P:problem=kreska pseudotaktowa	!	!	!
.	.	.	.	.	.	.	.	4f\	-li	.	.
.	.	.	.	2.A/	U-	2.A/	U-	2f\	u-	.	.
!LO:TX:t=P:problem=kreska pseudotaktowa	!	!LO:TX:t=P:problem=kreska pseudotaktowa	!	!	!	!	!	!LO:TX:t=P:problem=kreska pseudotaktowa	!	!LO:TX:t=P:problem=kreska pseudotaktowa	!
2Cn/	-ni-	2Cn/	-ni-	.	.	.	.	2e\	-ni-	2e\	-ni-
!	!	!	!	!LO:TX:t=P:problem=kreska pseudotaktowa	!	!LO:TX:t=P:problem=kreska pseudotaktowa	!	!	!	!	!
.	.	.	.	4A/	-ni-	4A/	-ni-	.	.	.	.
!	!	!	!	!LO:LB:g=original	!	!	!	!	!	!	!
=32	=32	=32	=32	=32	=32	=32	=32	=32	=32	=32	=32
2.BB/	-ge-	2.BB/	-ge-	2A/	-ge-	2A/	-ge-	2.d\	-ge-	2f#X\	-ge-
!	!	!	!	!LO:TX:t=P:problem=kreska pseudotaktowa	!	!LO:TX:t=P:problem=kreska pseudotaktowa	!	!	!	!LO:TX:t=P:problem=kreska pseudotaktowa	!
.	.	.	.	2G#X/	-ni-	2G#X/	-ni-	.	.	2d\	-ni-
!LO:TX:t=P:problem=kreska pseudotaktowa	!	!LO:TX:t=P:problem=kreska pseudotaktowa	!	!	!	!	!	!LO:TX:t=P:problem=kreska pseudotaktowa	!	!	!
4BB/	-ni-	4BB/	-ni-	.	.	.	.	4d\	-ni-	.	.
2AA,</	-te	2AA,</	-te	2A,</	-te	2A,</	-te	2c,<\	-te	2e,<\	-te
!	!	!	!	!	!	!	!	!LO:TX:t=P::problem=kreska pseudotaktowa&colon;między nutą a kropką	!	!LO:TX:t=P:problem=kreska pseudotaktowa	!
2.AA/	Je-	2.AA/	Je-	2.A/	Je-	2.A/	Je-	2.c\	JE-	2.e\	Je-
=33-	=33-	=33-	=33-	=33-	=33-	=33-	=33-	=33	=33	=33	=33
.	.	.	.	.	.	.	.	.	.	.	.
4BB/	.	4BB/	.	8Gny/L	.	8G/L	.	4d\	.	4d/	.
.	.	.	.	8F#X/J	.	8F#X/J	.	.	.	.	.
4C/	.	4C/	.	4E/	.	4E/	.	4e\	.	8c/L	.
.	.	.	.	.	.	.	.	.	.	8B/J	.
!LO:TX:t=P:problem=kreska pseudotaktowa	!	!LO:TX:t=P:problem=kreska pseudotaktowa	!	!LO:TX:t=P:problem=kreska pseudotaktowa	!	!LO:TX:t=P:problem=kreska pseudotaktowa	!	!	!	!	!
4D/	.	4D/	.	4F#X/	.	4F#/	.	8d\L	.	4A/	.
!	!	!	!	!	!	!	!	!LO:TX:t=P:problem=kreska pseudotaktowa	!	!	!
.	.	.	.	.	.	.	.	8c\J	.	.	.
2E\	.	2E\	.	2G/	.	2G/	.	4B\	.	2G,</	su
.	.	.	.	.	.	.	.	4E/	.	.	.
!	!	!LO:TX:t=P:problem=kreska pseudotaktowa	!	!LO:TX:t=P:problem=kreska pseudotaktowa	!	!LO:TX:t=P:problem=kreska pseudotaktowa	!	!	!	!	!
2C/	-su	2C/	-su	2E,</	-su	2E/	-su	1e\	-Su	1c\	X-
!LO:LB:g=original	!	!	!	!	!	!	!	!	!	!	!
=34-	=34-	=34	=34	=34	=34	=34	=34	=34-	=34-	=34-	=34-
!	!	!LO:TX:t=P:problem=kreska pseudotaktowa	!	!	!	!	!	!	!	!	!
1F	Chris-	1F	X-	1.A	Chri-	1.A	Chri-	.	.	.	.
!	!	!	!	!	!	!	!	!LO:TX:t=P:problem=kreska pseudotaktowa	!	!LO:TX:t=P:problem=kreska pseudotaktowa	!
.	.	.	.	.	.	.	.	2d\	.	2A/	-te
!	!	!	!	!	!	!	!	!	!	!LO:LB:g=original	!
!LO:TX:t=P:problem=kreska pseudotaktowa	!	!LO:TX:t=P:problem=kreska pseudotaktowa	!	!	!	!	!	!	!	!LO:TX:t=P:problem=kreska pseudotaktowa	!
1E,<	-te	1E,<	-te	.	.	.	.	(>2c\	Chris-	1e,<	.
!	!	!	!	!LO:TX:t=P:problem=kreska pseudotaktowa	!	!LO:TX:t=P:problem=kreska pseudotaktowa	!	!	!	!	!
.	.	.	.	2G#X/	.	2G#X/	-ste	2B\)	.	.	.
=35	=35	=35	=35	=35	=35	=35	=35	=35-	=35-	=35	=35
!	!	!	!	!	!	!	!	!LO:TX:t=P:problem=kreska pseudotaktowa	!	!	!
2.F\	Do-	2.F\	Do-	(>2.A\	-ste	2.A\	.	1A,<	-te	2.c\	Do-
!LO:TX:t=P:problem=kreska pseudotaktowa	!	!LO:TX:t=P:problem=kreska pseudotaktowa	!	!LO:TX:t=P:problem=kreska pseudotaktowa	!	!LO:TX:t=P:problem=kreska pseudotaktowa	!	!	!	!LO:TX:t=P:problem=kreska pseudotaktowa	!
4F\	-mi-	4F\	-mi-	4B,<\)	.	4B\	.	.	.	4d\	-mi-
!	!	!	!	!	!	!	!	!LO:LB:g=original	!	!	!
2E,<\	-ne	2E,<\	-ne	2.c\	Do-	2.c\	Do-	0r	.	2e,<\	-ne
!	!	!	!	!	!	!	!	!	!	!LO:TX:t=P:problem=kreska pseudotaktowa	!
1F\	De-	1F\	De-	.	.	.	.	.	.	2c/	De-
!	!	!	!	!LO:TX:t=P:problem=kreska pseudotaktowa	!	!LO:TX:t=P:problem=kreska pseudotaktowa	!	!	!	!	!
.	.	.	.	4B\	-mi-	4B\	-mi-	.	.	.	.
!	!	!	!	!	!	!LO:LB:g=original	!	!	!	!	!
=36-	=36-	=36-	=36-	=36	=36	=36	=36	=36-	=36-	=36	=36
.	.	.	.	2A,<\	-ne	2A\	-ne	.	.	2c/	-us
*	*	*custos:D	*	*	*	*	*	*	*	*	*
!LO:TX:t=P:problem=kreska pseudotaktowa	!	!	!	!	!	!	!	!	!	!	!
!	!	!LO:TX:t=P:problem=kreska pseudotaktowa	!	!	!	!	!	!	!	!LO:TX:t=P:problem=kreska pseudotaktowa	!
2E\	-us	2E\	-us	1c	De-	1c	De-	.	.	2e\	ag-
!	!	!LO:LB:g=original	!	!	!	!	!	!	!	!	!
!	!	!	!	!	!	!	!	!LO:TX:t=P:problem=kreska pseudotaktowa	!	!LO:TX:t=P:problem=kreska pseudotaktowa	!
1D	ag-	(<1D	ag-	.	.	.	.	1fn	DE-	1fn,<	-nus
!	!	!	!	!	!	!LO:TX:t=P:problem=kreska pseudotaktowa	!	!	!	!	!
.	.	.	.	2B\	.	2B\	.	.	.	.	.
=37-	=37-	=37-	=37-	=37-	=37-	=37	=37	=37	=37	=37	=37
!	!	!	!	!LO:TX:t=P:problem=kreska pseudotaktowa	!	!LO:TX:t=P:problem=kreska pseudotaktowa	!	!	!	!	!
2C/	.	2C/)	.	1c,<	-us	1c,<	-us	2e,<\	-US	2g\	De-
!LO:TX:t=P:problem=kreska pseudotaktowa	!	!LO:TX:t=P:problem=kreska pseudotaktowa	!	!	!	!	!	!	!	!LO:TX:t=P:problem=kreska pseudotaktowa	!
2AA,</	-nus	2AA,</	-nus	.	.	.	.	1f	ag-	2f\	.
2BB/	De-	2BB/	De-	2d\	Ag-	2d\	ag-	.	.	(>2d\	.
!	!	!	!	!	!	!LO:TX:t=P:problem=kreska pseudotaktowa	!	!LO:TX:t=P:problem=kreska pseudotaktowa	!	!LO:TX:t=P:problem=kreska pseudotaktowa	!
1C/	.	1C/	.	2c,<\	-nus	2c\	-nus	2e\	-n(us)	2e\)	.
=38-	=38-	=38-	=38-	=38-	=38-	=38	=38	=38	=38	=38	=38
!	!	!	!	!	!	!	!	!LO:TX:t=P:problem=kreska pseudotaktowa	!	!	!
.	.	.	.	1f	De-	1f	De-	1d	De-	2c,<\	-i
!LO:TX:t=P:problem=kreska pseudotaktowa	!	!LO:TX:t=P:problem=kreska pseudotaktowa	!	!	!	!	!	!	!	!LO:TX:t=P:problem=kreska pseudotaktowa	!
2BB/	.	2BB/	.	.	.	.	.	.	.	2g\	Fi-
2C/	-i	2C/	-i	2e,<\	-i	2e,<\	-i	2c,<\	-i	2g\	-li-
!	!	!	!	!	!	!	!	!	!	!LO:TX:t=P:problem=kreska pseudotaktowa	!
2.C/	Fi-	2.C/	Fi-	2.c\	Fi-	2.c\	Fi-	2.e\	Fi-	2g\	-us
=39-	=39-	=39-	=39-	=39-	=39-	=39-	=39-	=39-	=39-	=39	=39
.	.	.	.	.	.	.	.	.	.	1g	Pa-
4C/	-li-	4C/	-li-	4c\	-li-	4c\	-li-	4e\	-li-	.	.
!	!	!LO:TX:t=P:problem=kreska pseudotaktowa	!	!LO:TX:t=P:problem=kreska pseudotaktowa	!	!LO:TX:t=P:problem=kreska pseudotaktowa	!	!LO:TX:t=P:problem=kreska pseudotaktowa	!	!	!
2GG/	-us	2GG/	-us	2B\	-(us)	2B\	-us	2d\	-us	.	.
0AA	Pa-	0AA	Pa-	2.A\	Pa-	2.A/	Pa-	2.c\	Pa-	0e	.
!	!	!	!	!	!	!LO:TX:t=P:problem=kreska pseudotaktowa	!	!LO:TX:t=P:problem=kreska pseudotaktowa	!	!	!
.	.	.	.	4B\	.	4B/	.	4B\	.	.	.
=40-	=40-	=40-	=40-	=40-	=40-	=40	=40	=40	=40	=40-	=40-
.	.	.	.	4c\	.	4c\	.	4A\	.	.	.
.	.	.	.	4B\	.	4B\	.	4B\	.	.	.
.	.	.	.	2A\	.	2A/	.	2c\	.	.	.
!	!	!	!	!LO:TX:a:t=P:problem=# above	!	!	!	!	!	!	!
0.E;>	-tris	0.E;>	-tris	0.G#Xi;<	-tris	0.G#X;>	-tris.	0.Bl;>	-tris.	0.e;>	-tris.
=41-	=41-	=41-	=41-	=41-	=41-	=41-	=41-	=41-	=41-	=41-	=41-
.	.	.	.	.	.	.	.	.	.	.	.
!LO:PB:g=original	!	!	!	!LO:LB:g=original	!	!	!	!	!	!LO:LB:g=original	!
=42||	=42||	=42||	=42||	=42||	=42||	=42||	=42||	=42||	=42||	=42||	=42||
*M2/1	*	*M2/1	*	*M2/1	*	*M2/1	*	*M2/1	*	*M2/1	*
*met(C|)	*	*met(C|)	*	*met(C|)	*	*met(C|)	*	*met(C|)	*	*met(C|)	*
!LO:TX:t=P:problem=kreska pseudotaktowa	!	!	!	!	!	!	!	!	!	!	!
!	!	!LO:TX:t=P:problem=kreska pseudotaktowa	!	!	!	!	!	!	!	!	!
!	!	!	!	!LO:TX:t=P:problem=kreska pseudotaktowa	!	!	!	!	!	!	!
!	!	!	!	!	!	!LO:TX:t=P:problem=kreska pseudotaktowa	!	!	!	!	!
!	!	!	!	!	!	!	!	!LO:TX:t=P:problem=kreska pseudotaktowa	!	!	!
0r	.	0r	.	1A	Qui	1A	Qui	00r	.	0r	.
!	!	!	!	!LO:TX:t=P:problem=kreska pseudotaktowa	!	!LO:TX:t=P:problem=kreska pseudotaktowa	!	!	!	!	!
.	.	.	.	1c	tol-	1c	tol-	.	.	.	.
=43	=43	=43	=43	=43	=43	=43	=43	=43-	=43-	=43-	=43-
!	!	!LO:TX:t=P:problem=kreska pseudotaktowa	!	!	!	!	!	!	!	!	!
1E	Qui	1E	Qui	2B,<\	-lis	2B,<\	-lis	.	.	1r	.
!	!	!	!	!LO:TX:t=P:problem=kreska pseudotaktowa	!	!LO:TX:t=P:problem=kreska pseudotaktowa	!	!	!	!	!
.	.	.	.	2G/	pec-	2G/	pec-	.	.	.	.
!LO:TX:t=P:problem=kreska pseudotaktowa	!	!	!	!	!	!	!	!	!	!LO:TX:t=P:problem=kreska pseudotaktowa	!
1Fn	tol-	1F	tol-	2.A\	-ca-	2.A\	-ca-	.	.	1c	Qui
!	!	!	!	!LO:TX:t=P:problem=kreska pseudotaktowa	!	!LO:TX:t=P:problem=kreska pseudotaktowa	!	!	!	!	!
.	.	.	.	4B\	.	4B\	.	.	.	.	.
=44	=44	=44-	=44-	=44	=44	=44	=44	=44	=44	=44	=44
!	!	!	!	!	!	!	!	!LO:TX:t=P:problem=kreska pseudotaktowa	!	!LO:TX:t=P:problem=kreska pseudotaktowa	!
2E,<\	-lis	2E,<\	-lis	4c\	.	4c\	.	1e	Qui	1e	tol-
.	.	.	.	4d\	.	4d\	.	.	.	.	.
!LO:TX:t=P:problem=kreska pseudotaktowa	!	!LO:TX:t=P:problem=kreska pseudotaktowa	!	!	!	!	!	!	!	!	!
2C/	pec-	2C/	pec-	1e	.	1e	.	.	.	.	.
2AA/	-ca-	2AA/	-ca-	.	.	.	.	1fn	tol-	2f,<\	-lis
!LO:TX:t=P:problem=kreska pseudotaktowa	!	!LO:TX:t=P:problem=kreska pseudotaktowa	!	!	!	!	!	!	!	!LO:TX:t=P:problem=kreska pseudotaktowa	!
2BB/	-ta	2BB/	-ta	2d\	-ta	2d,<\	-ta	.	.	2f\	pec-
=45	=45	=45	=45	=45-	=45-	=45-	=45-	=45-	=45-	=45	=45
!	!	!LO:TX:t=P:problem=kreska pseudotaktowa	!	!LO:TX:t=P:problem=kreska pseudotaktowa	!	!LO:TX:t=P:problem=kreska pseudotaktowa	!	!	!	!	!
1C	mun-	1C	mun-	1c	mun-	1c	mun-	2e,<\	-lis	(>2c\	-ca-
!	!	!	!	!	!	!	!	!LO:TX:t=P:problem=kreska pseudotaktowa	!	!	!
.	.	.	.	.	.	.	.	2c\	pec-	2e\)	.
!	!	!	!	!	!	!LO:LB:g=original	!	!	!	!	!
!	!	!	!	!	!	!	!	!	!	!LO:TX:t=P:problem=kreska pseudotaktowa	!
2GG,</	-di	2GG,</	-di	2.B,<\	-di	2.B,<\	-di	(>2d\	-ca-	1d	-ta
!LO:TX:t=P:problem=kreska pseudotaktowa	!	!LO:TX:t=P:problem=kreska pseudotaktowa	!	!	!	!	!	!LO:TX:t=P:problem=kreska pseudotaktowa	!	!	!
2G\	pec-	2G\	pec-	.	.	.	.	2e\)	-ta	.	.
!	!	!	!	!LO:TX:t=P:problem=kreska pseudotaktowa	!	!LO:TX:t=P:problem=kreska pseudotaktowa	!	!	!	!	!
.	.	.	.	4c\	pec-	4c\	pec-	.	.	.	.
=46	=46	=46	=46	=46	=46	=46	=46	=46	=46	=46	=46
2D\	-ca-	2D\	-ca-	2d\	-ca-	2d\	-ca-	2f\	mun-	2r	.
!	!	!	!	!LO:TX:t=P:problem=kreska pseudotaktowa	!	!LO:TX:t=P:problem=kreska pseudotaktowa	!	!	!	!LO:TX:t=P:problem=kreska pseudotaktowa	!
2C#X/	-ta	2C#X/	-ta	2e\	-ta	2e\	-ta	1e	.	2g\	pec-
!LO:TX:t=P:problem=kreska pseudotaktowa	!	!LO:TX:t=P:problem=kreska pseudotaktowa	!	!	!	!LO:TX:t=P:problem=kreska pseudotaktowa	!	!	!	!	!
1D	mun-	1D	mun-	1fn	mun-	1f	mun-	.	.	2.fn\	-ca-
*	*	*	*	*	*	*	*	*custos:c	*	*	*
!	!	!	!	!	!	!	!	!LO:TX:t=P:problem=kreska pseudotaktowa	!	!	!
.	.	.	.	.	.	.	.	2d\	.	.	.
!	!	!	!	!	!	!	!	!	!	!LO:TX:t=P:problem=kreska pseudotaktowa	!
.	.	.	.	.	.	.	.	.	.	4f\	-ta
!	!	!	!	!	!	!	!	!LO:LB:g=original	!	!	!
=47	=47	=47	=47	=47-	=47-	=47	=47	=47	=47	=47	=47
!	!	!	!	!LO:TX:t=P:problem=kreska pseudotaktowa	!	!LO:TX:t=P:problem=kreska pseudotaktowa	!	!	!	!	!
2AA,</	-di	2AA,</	-di	1e,<	-di	1e	-di	2c,<\	-di	4c/	mun-
.	.	.	.	.	.	.	.	.	.	4c/	-di
!	!	!LO:LB:g=original	!	!	!	!	!	!	!	!	!
1A	mi-	1A	mi-	.	.	.	.	1c	mi-	1e	mi-
.	.	.	.	1.e	mi-	1.e	mi-	.	.	.	.
!	!	!	!	!	!	!	!	!LO:TX:t=P:problem=kreska pseudotaktowa	!	!	!
4G\	-se-	4G\	-se-	.	.	.	.	2B\	-ſe-	1g\	.
!LO:TX:t=P:problem=kreska pseudotaktowa	!	!LO:TX:t=P:problem=kreska pseudotaktowa	!	!	!	!	!	!	!	!	!
4F\	.	4F\	.	.	.	.	.	.	.	.	.
=48	=48	=48	=48	=48-	=48-	=48-	=48-	=48	=48	=48-	=48-
2E\	-re-	2E\	-re-	.	.	.	.	2G/	-re-	.	.
!LO:TX:t=P:problem=kreska pseudotaktowa	!	!LO:TX:t=P:problem=kreska pseudotaktowa	!	!	!	!	!	!LO:TX:t=P:problem=kreska pseudotaktowa	!	!LO:TX:t=P:problem=kreska pseudotaktowa	!
2F#X\	-re	2F#X\	.	4d\	-ſe-	4d\	-ſe-	2A/	-re	2f#X\	-ſe-
!	!	!	!	!LO:TX:t=P:problem=kreska pseudotaktowa	!	!LO:TX:t=P:problem=kreska pseudotaktowa	!	!	!	!	!
.	.	.	.	4c\	.	4c\	.	.	.	.	.
1G	no-	1G	.	4B\	-re-	(>4B\	-re-	4G/	no-	(>2d\	-re-
.	.	.	.	4c\	.	4c\	.	4A/	.	.	.
!	!	!	!	!	!	!	!	!	!	!LO:TX:t=P:problem=kreska pseudotaktowa	!
.	.	.	.	4d\	.	4d\	.	4B/	.	2g\)	.
.	.	.	.	4e\	.	4e\)	.	4c/	.	.	.
=49-	=49-	=49-	=49-	=49-	=49-	=49-	=49-	=49-	=49-	=49	=49
!LO:TX:t=P:problem=kreska pseudotaktowa	!	!LO:TX:t=P:problem=kreska pseudotaktowa	!	!	!	!	!	!	!	!	!
1Fn,<	.	1Fn,<	-re	4f\	.	4f\	.	4d\	.	2c\	.
.	.	.	.	4e\	.	4e\	.	4c\	.	.	.
!	!	!	!	!	!	!	!	!	!	!LO:TX:t=P:problem=kreska pseudotaktowa	!
.	.	.	.	4d\	.	4d\	.	1f	.	2fn\	-re
!	!	!	!	!LO:TX:t=P:problem=kreska pseudotaktowa	!	!LO:TX:t=P:problem=kreska pseudotaktowa	!	!	!	!	!
.	.	.	.	4c\	.	4c\	.	.	.	.	.
!	!	!	!	!	!	!	!	!	!	!LO:TX:a:t=P:problem=w źródle dwie grube czarne kropki nad nutami	!
!	!	!LO:TX:t=P:problem=kreska pseudotaktowa	!	!	!	!	!	!	!	!	!
0G	-bis.	0G	no-	4B\	-re	4B/	-re	.	.	2d\	.
.	.	.	.	4G/	.	4G/	.	.	.	.	.
!	!	!	!	!	!	!	!	!LO:TX:t=P:problem=kreska pseudotaktowa	!	!LO:TX:t=P:problem=kreska pseudotaktowa	!
.	.	.	.	1c\	no-	(>1c\	no-	2e\	.	2B/	.
=50-	=50-	=50	=50	=50-	=50-	=50-	=50-	=50	=50	=50	=50
!	!	!	!	!	!	!	!	!LO:TX:t=P:problem=kreska pseudotaktowa	!	!	!
.	.	.	.	.	.	.	.	1d	.	1d	no-
!	!	!	!	!LO:TX:t=P:problem=kreska pseudotaktowa	!	!LO:TX:t=P:problem=kreska pseudotaktowa	!	!	!	!	!
.	.	.	.	2B\	-bis!	2B\)	.	.	.	.	.
*custos:C	*	*	*	*	*	*	*	*	*	*	*
!LO:TX:t=P:problem=kreska pseudotaktowa	!	!LO:TX:t=P:problem=kreska pseudotaktowa	!	!	!	!	!	!	!	!LO:TX:t=P:problem=kreska pseudotaktowa	!
1C,<	.	1C,<	-bis.	2c,<\	.	2c,<\	-bis	1e,<	-bis.	1cn,<	-bis
!	!	!	!	!	!	!LO:TX:t=P:problem=kreska pseudotaktowa	!	!	!	!	!
.	.	.	.	2G/	Qui	2G/	Qui	.	.	.	.
!LO:LB:g=original	!	!	!	!	!	!	!	!	!	!	!
=51	=51	=51	=51	=51-	=51-	=51	=51	=51-	=51-	=51	=51
!	!	!	!	!LO:TX:t=P:problem=kreska pseudotaktowa	!	!LO:TX:t=P:problem=kreska pseudotaktowa	!	!	!	!	!
!	!	!	!	!	!	!	!	!LO:TX:a:Bi:t=1.	!	!	!
2r	.	2r	.	1c	tol-	1c	tol-	1r	.	2r	.
!LO:TX:t=P:problem=kreska pseudotaktowa	!	!LO:TX:t=P:problem=kreska pseudotaktowa	!	!	!	!	!	!	!	!	!
2C/	Qui	2C/	Qui	.	.	.	.	.	.	2e\	Qui
*	*	*	*	*	*	*	*	*	*	*custos:a	*
!	!	!	!	!	!	!	!	!	!	!LO:TX:t=P:problem=kreska pseudotaktowa	!
1F	tol-	1F	tol-	2A,<\	-lis	2A,<\	-lis	2r	.	1fn	tol-
!	!	!	!	!	!	!LO:TX:t=P:problem=kreska pseudotaktowa	!	!LO:TX:t=P:problem=kreska pseudotaktowa	!	!	!
.	.	.	.	2A\	pec-	2A\	pec-	2c\	Qui	.	.
!	!	!	!	!LO:LB:g=original	!	!	!	!	!	!LO:LB:g=original	!
=52-	=52-	=52-	=52-	=52-	=52-	=52	=52	=52	=52	=52	=52
!	!	!	!	!	!	!	!	!LO:TX:t=P:problem=kreska pseudotaktowa	!	!	!
2D,<\	-lis	2D,<\	-lis	2.d\	-ca-	2.d\	-ca-	1f	tol-	2a,<\	-lis
!LO:TX:t=P:problem=kreska pseudotaktowa	!	!LO:TX:t=P:problem=kreska pseudotaktowa	!	!	!	!	!	!	!	!LO:TX:t=P:problem=kreska pseudotaktowa	!
2D\	pec-	2D\	pec-	.	.	.	.	.	.	2a\	pec-
!	!	!	!	!LO:TX:t=P:problem=kreska pseudotaktowa	!	!LO:TX:t=P:problem=kreska pseudotaktowa	!	!	!	!	!
.	.	.	.	4c\	.	4c\	.	.	.	.	.
2G\	-ca-	2G\	-ca-	2B\	.	2B\	.	2d,<\	-lis	2g\	-ca-
!LO:TX:t=P:problem=kreska pseudotaktowa	!	!LO:TX:t=P:problem=kreska pseudotaktowa	!	!LO:TX:t=P:problem=kreska pseudotaktowa	!	!	!	!LO:TX:t=P:problem=kreska pseudotaktowa	!	!LO:TX:t=P:problem=kreska pseudotaktowa	!
2F#X\	.	2F#X\	.	2A\	.	2A\	.	2d\	pec-	2d\	-ta
=53	=53	=53	=53	=53	=53	=53-	=53-	=53	=53	=53	=53
2E\	.	2E\	.	2G/	.	2G/	.	4c#X\	-ca-	2g\	mun-
.	.	.	.	.	.	.	.	4c#\	-ta	.	.
!LO:TX:t=P:problem=kreska pseudotaktowa	!	!LO:TX:t=P:problem=kreska pseudotaktowa	!	!LO:TX:t=P:problem=kreska pseudotaktowa	!	!LO:TX:t=P:problem=kreska pseudotaktowa	!	!	!	!LO:TX:t=P:problem=kreska pseudotaktowa	!
2D\	-ta	2D\	-ta	2F#X/	ta	2F#X/	ta	1d	mun-	2d\	.
!	!	!	!	!	!	!LO:LB:g=original	!	!	!	!	!
!LO:TX:t=P:problem=kreska pseudotaktowa	!	!	!	!	!	!LO:TX:t=P:problem=kreska pseudotaktowa	!	!	!	!	!
1E	mun-	1E	mun-	1G	mun-	1G	mun-	.	.	(<2B/	.
!	!	!	!	!	!	!	!	!LO:TX:t=P:problem=kreska pseudotaktowa	!	!LO:TX:t=P:problem=kreska pseudotaktowa	!
.	.	.	.	.	.	.	.	2c#X\	.	2c#X/)	.
=54	=54	=54-	=54-	=54-	=54-	=54	=54	=54	=54	=54	=54
!LO:TX:t=P:problem=kreska pseudotaktowa	!	!LO:TX:t=P:problem=kreska pseudotaktowa	!	!LO:TX:t=P:problem=kreska pseudotaktowa	!	!LO:TX:t=P:problem=kreska pseudotaktowa	!	!	!	!LO:TX:t=P:problem=kreska pseudotaktowa	!
1D,<	-di	1D,<	-di	1F#X,<	-di	1F#X	-di	2d,<\	-di,	2A/	-di,
.	.	.	.	.	.	.	.	2.d\	Sus-	2r	.
2.G\	Sus-	2.G\	Sus-	2.B\	Suſ-	2.B\	Suſ-	.	.	1r	.
.	.	.	.	.	.	.	.	4c\	-ci-	.	.
!	!	!	!	!	!	!	!	!LO:TX:t=P:problem=kreska pseudotaktowa	!	!	!
!	!	!	!	!	!	!	!	!LO:TX:a:t=P:problem=w źródle możliwa również ligatura	!	!	!
.	.	.	.	.	.	.	.	(<2B\	-pe	.	.
!LO:TX:t=P:problem=kreska pseudotaktowa	!	!LO:TX:t=P:problem=kreska pseudotaktowa	!	!	!	!LO:TX:t=P:problem=kreska pseudotaktowa	!	!	!	!	!
4Fn\	-ci-	4Fn\	-ci-	4A/	-ci-	4A/	-ci-	.	.	.	.
=55	=55	=55	=55	=55-	=55-	=55	=55	=55	=55	=55-	=55-
!LO:TX:t=P:problem=kreska pseudotaktowa	!	!LO:TX:t=P:problem=kreska pseudotaktowa	!	!LO:TX:t=P:problem=kreska pseudotaktowa	!	!LO:TX:t=P:problem=kreska pseudotaktowa	!	!	!	!	!
1E,<	-pe	1E	-pe	1G,<	-pe	1G	-pe	2B,<\)	.	2.g\	Sus-
.	.	.	.	.	.	.	.	2.e\	de-	.	.
!	!	!	!	!	!	!	!	!	!	!LO:TX:t=P:problem=kreska pseudotaktowa	!
.	.	.	.	.	.	.	.	.	.	4f\	-ci-
2.A\	de-	2.A\	de-	2.c\	de-	2.c\	de-	.	.	2e,<\	-pe
.	.	.	.	.	.	.	.	4d\	-pre-	.	.
!	!	!	!	!	!	!	!	!LO:TX:t=P:problem=kreska pseudotaktowa	!	!LO:TX:t=P:problem=kreska pseudotaktowa	!
!	!	!	!	!	!	!	!	!LO:TX:a:t=P:problem=w źródle możliwa również ligatura	!	!	!
.	.	.	.	.	.	.	.	(<2c\	-ca-	2e\	de-
!LO:TX:t=P:problem=kreska pseudotaktowa	!	!LO:TX:t=P:problem=kreska pseudotaktowa	!	!LO:TX:t=P:problem=kreska pseudotaktowa	!	!LO:TX:t=P:problem=kreska pseudotaktowa	!	!	!	!	!
4G\	-pre-	4G\	-pre-	4B\	-pre-	4B\	-pre-	.	.	.	.
=56	=56	=56	=56	=56	=56	=56	=56	=56	=56	=56	=56
2F\	-ca-	2F\	-ca-	2A/	-ca-	2A/	-ca-	2c\)	.	2f\	-pre-
!LO:TX:t=P:problem=kreska pseudotaktowa	!	!LO:TX:t=P:problem=kreska pseudotaktowa	!	!LO:TX:t=P:problem=kreska pseudotaktowa	!	!LO:TX:t=P:problem=kreska pseudotaktowa	!	!LO:TX:t=P:problem=kreska pseudotaktowa	!	!LO:TX:t=P:problem=kreska pseudotaktowa	!
2E\	-ti-	2E\	-ti-	2G/	-ti-	2G/	-ti-	2c\	-ti-	2a\	-ca-
!	!	!LO:LB:g=original	!	!	!	!	!	!LO:LB:g=original	!	!	!
2D/	o-	2D/	o-	2F/	-o-	2F/	-o-	4B\	-o-	2d\	-ti-
.	.	.	.	.	.	.	.	4A\	-nem	.	.
!LO:TX:t=P:problem=kreska pseudotaktowa	!	!LO:TX:t=P:problem=kreska pseudotaktowa	!	!LO:TX:t=P:problem=kreska pseudotaktowa	!	!LO:TX:t=P:problem=kreska pseudotaktowa	!	!	!	!	!
2C/	-(ne)m	2C/	-nem	2E/	-nem	2E/	-nem	1A\	no-	2g\	-o-
=57	=57	=57	=57	=57	=57	=57	=57	=57-	=57-	=57-	=57-
!	!	!LO:TX:t=P:problem=kreska pseudotaktowa	!	!	!	!	!	!	!	!	!
1BB	nos-	1BB	nos-	1D	nos-	1D	nos-	.	.	2fn,<\	-nem
!	!	!	!	!	!	!	!	!LO:TX:t=P:problem=kreska pseudotaktowa	!	!LO:TX:t=P:problem=kreska pseudotaktowa	!
.	.	.	.	.	.	.	.	2G#X/	.	2d\	nos-
!	!	!	!	!	!	!	!	!LO:TX:t=P:problem=kreska pseudotaktowa	!	!	!
2AA/	-tram	2AA/	-tram	2C,</	-tram	2C,</	-tram	1A,<	-stram	2e\	-tram
!LO:TX:t=P:problem=kreska pseudotaktowa	!	!LO:TX:t=P:problem=kreska pseudotaktowa	!	!LO:TX:t=P:problem=kreska pseudotaktowa	!	!LO:TX:t=P:problem=kreska pseudotaktowa	!	!	!	!LO:TX:t=P:problem=kreska pseudotaktowa	!
2r	.	2r	.	2E/	Qui	2E/	Qui	.	.	2r	.
=58	=58	=58	=58	=58	=58	=58	=58	=58-	=58-	=58	=58
!	!	!	!	!LO:TX:t=P:problem=kreska pseudotaktowa	!	!LO:TX:t=P:problem=kreska pseudotaktowa	!	!	!	!	!
!	!	!	!	!	!	!	!	!LO:TX:t=P:problem=kreska pseudotaktowa	!	!	!
2r	.	2r	.	1A	se-	1A	se-	00r	.	2r	.
!LO:TX:t=P:problem=kreska pseudotaktowa	!	!LO:TX:t=P:problem=kreska pseudotaktowa	!	!	!	!	!	!	!	!LO:TX:t=P:problem=kreska pseudotaktowa	!
2AA/	Qui	2AA/	Qui	.	.	.	.	.	.	2e\	Qui
!	!	!LO:TX:t=P:problem=kreska pseudotaktowa	!	!	!	!	!	!	!	!LO:TX:t=P:problem=kreska pseudotaktowa	!
1E	se-	1E	se-	2G,</	-des	2G,</	-des	.	.	1g	se-
!	!	!	!	!LO:TX:t=P:problem=kreska pseudotaktowa	!	!LO:TX:t=P:problem=kreska pseudotaktowa	!	!	!	!	!
.	.	.	.	2E/	ad	2E/	ad	.	.	.	.
=59-	=59-	=59	=59	=59	=59	=59	=59	=59-	=59-	=59	=59
2D,<\	-des	2D,<\	-des	2F#X/	dex-	2F#X/	dex-	.	.	2d,<\	-des
!LO:TX:t=P:problem=kreska pseudotaktowa	!	!LO:TX:t=P:problem=kreska pseudotaktowa	!	!	!	!	!	!	!	!LO:TX:t=P:problem=kreska pseudotaktowa	!
2BB/	ad	2BB/	ad	4F#/	-te-	4F#/	-te-	.	.	2d\	ad
!	!	!	!	!LO:TX:t=P:problem=kreska pseudotaktowa	!	!LO:TX:t=P:problem=kreska pseudotaktowa	!	!	!	!	!
.	.	.	.	4G/	-ra(m)	4G/	-ra(m)	.	.	.	.
!LO:LB:g=original	!	!	!	!	!	!	!	!	!	!	!
!	!	!	!	!	!	!LO:TX:t=P:problem=kreska pseudotaktowa	!	!	!	!	!
!	!	!	!	!	!	!LO:TX:a:t=P:problem=w źródle możliwa ligatura	!	!	!	!	!
2.C/	dex-	2.C/	dex-	1.A	Pa-	(<1A	Pa-	.	.	2.e\	dex-
!	!	!LO:TX:t=P:problem=kreska pseudotaktowa	!	!	!	!	!	!	!	!	!
4D\	-te-	4D\	-te-	.	.	.	.	.	.	4f\	-te-
=60-	=60-	=60	=60	=60-	=60-	=60	=60	=60	=60	=60-	=60-
!LO:TX:t=P:problem=kreska pseudotaktowa	!	!LO:TX:t=P:problem=kreska pseudotaktowa	!	!	!	!	!	!	!	!LO:TX:t=P:problem=kreska pseudotaktowa	!
1E,<	-ram	1E,<	-ram	.	.	2A/)	.	2B\	Qui	1e	-ram
!	!	!	!	!LO:TX:t=P:problem=kreska pseudotaktowa	!	!LO:TX:t=P:problem=kreska pseudotaktowa	!	!	!	!	!
!	!	!	!	!	!	!LO:TX:a:t=P:problem=w źródle możliwa ligatura	!	!	!	!	!
.	.	.	.	2G/	.	(<2G/	.	1e	se-	.	.
!	!	!	!	!LO:LB:g=original	!	!	!	!	!	!LO:LB:g=original	!
!	!	!	!	!	!	!	!	!	!	!LO:TX:t=P:problem=kreska pseudotaktowa	!
1.BB	Pa-	1.BB	Pa-	2G/	.	2G/)	.	.	.	00r	.
!	!	!	!	!	!	!	!	!LO:TX:t=P:problem=kreska pseudotaktowa	!	!	!
.	.	.	.	4F#X/	.	4F#X/	.	2d\	-des	.	.
!	!	!	!	!LO:TX:t=P:problem=kreska pseudotaktowa	!	!	!	!	!	!	!
.	.	.	.	4E/	.	4E/	.	.	.	.	.
=61-	=61-	=61-	=61-	=61	=61	=61-	=61-	=61	=61	=61-	=61-
.	.	.	.	2F#X/	.	2F#X/	.	2d\	ad	.	.
!LO:TX:t=P:problem=kreska pseudotaktowa	!	!LO:TX:t=P:problem=kreska pseudotaktowa	!	!	!	!	!	!LO:TX:t=P:problem=kreska pseudotaktowa	!	!	!
2GG/	.	2GG/	.	4G/	.	4G/	.	2B\	dex-	.	.
!	!	!	!	!LO:TX:t=P:problem=kreska pseudotaktowa	!	!LO:TX:t=P:problem=kreska pseudotaktowa	!	!	!	!	!
.	.	.	.	4F#/	.	4F#/	.	.	.	.	.
!	!	!	!	!	!	!LO:LB:g=original	!	!	!	!	!
2AA/	.	2AA/	.	4E/	.	4E/	.	4.c\	-te-	.	.
.	.	.	.	4F#X/	.	4F#X/	.	.	.	.	.
.	.	.	.	.	.	.	.	8c\	-ra(m)	.	.
!LO:TX:t=P:problem=kreska pseudotaktowa	!	!LO:TX:t=P:problem=kreska pseudotaktowa	!	!LO:TX:t=P:problem=kreska pseudotaktowa	!	!	!	!LO:TX:t=P:problem=kreska pseudotaktowa	!	!	!
!	!	!	!	!LO:TX:a:t=P:problem=w źródle możliwa ligatura	!	!	!	!	!	!	!
2BB/	.	2BB/	.	(<2G/	.	1G/	.	2B\	.	.	.
=62	=62	=62	=62	=62	=62	=62-	=62-	=62	=62	=62-	=62-
2C/	.	2C/	.	2G/)	.	.	.	1A	Pa-	.	.
!LO:TX:t=P:problem=kreska pseudotaktowa	!	!LO:TX:t=P:problem=kreska pseudotaktowa	!	!LO:TX:t=P:problem=kreska pseudotaktowa	!	!LO:TX:t=P:problem=kreska pseudotaktowa	!	!	!	!	!
2D\	.	2D/	.	2F#X/	.	2F#X/	.	.	.	.	.
!	!	!	!	!	!	!	!	!LO:TX:t=P:problem=kreska pseudotaktowa	!	!	!
2GG,</	-tris	2GG,</	-tris	2G,</	-tris	2G,</	-tris	1G,<	-tris	2r	.
!	!	!	!	!	!	!	!	!	!	!LO:TX:t=P:problem=kreska pseudotaktowa	!
1G\	mi-	1G\	mi-	1B\	mi-	1B\	mi-	.	.	2d\	mi-
=63-	=63-	=63-	=63-	=63-	=63-	=63-	=63-	=63	=63	=63	=63
.	.	.	.	.	.	.	.	1r	.	1d	-se-
!LO:TX:t=P:problem=kreska pseudotaktowa	!	!LO:TX:t=P:problem=kreska pseudotaktowa	!	!LO:TX:t=P:problem=kreska pseudotaktowa	!	!LO:TX:t=P:problem=kreska pseudotaktowa	!	!	!	!	!
2F#X\	.	2F#X\	-ſe-	2A\	-ſe-	2A\	-ſe-	.	.	.	.
(>2E\	-ſe-	(>2E\	-re-	2G/	-re-	2G/	-re-	2r	.	(>2en\	-re-
!	!	!LO:TX:t=P:problem=kreska pseudotaktowa	!	!	!	!LO:TX:t=P:problem=kreska pseudotaktowa	!	!	!	!	!
2D\)	.	2D\)	.	2F#X,</	-re	2F#X/	-re	1d\	mi-	2f#X\)	.
=64-	=64-	=64	=64	=64-	=64-	=64	=64	=64-	=64-	=64-	=64-
1.E	-re-	1.E	-re-	2G#X/	mi-	2G#X/	no-	.	.	2B,</	-re
!	!	!	!	!	!	!	!	!LO:TX:t=P:problem=kreska pseudotaktowa	!	!	!
.	.	.	.	2A/	-ſe-	2A/	.	2c\	-ſe-	1B	no-
.	.	.	.	2G#X/	-re-	2G#X,</	-bis	4B\	-re-	.	.
.	.	.	.	.	.	.	.	4E/	-re	.	.
!LO:TX:t=P:problem=kreska pseudotaktowa	!	!LO:TX:t=P:problem=kreska pseudotaktowa	!	!	!	!	!	!	!	!LO:TX:t=P:problem=kreska pseudotaktowa	!
!	!	!	!	!	!	!	!	!	!	!LO:TX:a:t=P:problem=w źródle możliwa również ligatura	!
2E\	-re	2E\	.	2c\	-re	2c\	no-	1A\	no-	(<2e\	.
=65	=65	=65	=65	=65-	=65-	=65-	=65-	=65-	=65-	=65-	=65-
!LO:TX:t=P:problem=kreska pseudotaktowa	!	!LO:TX:t=P:problem=kreska pseudotaktowa	!	!LO:TX:t=P:problem=kreska pseudotaktowa	!	!	!	!	!	!	!
1E	no-	1E	no-	1B	no-	1B	.	.	.	0e)	.
!	!	!	!	!	!	!	!	!LO:TX:t=P:problem=kreska pseudotaktowa	!	!	!
.	.	.	.	.	.	.	.	2G#X/	.	.	.
!LO:TX:t=P:problem=kreska pseudotaktowa	!	!LO:TX:t=P:problem=kreska pseudotaktowa	!	!LO:TX:t=P:problem=kreska pseudotaktowa	!	!LO:TX:t=P:problem=kreska pseudotaktowa	!	!LO:TX:t=P:problem=kreska pseudotaktowa	!	!	!
!	!	!	!	!	!	!	!	!LO:TX:a:t=P:problem=w źródle możliwa również ligatura	!	!	!
1AA,<	-bis	1AA,<	-bis	1A,<	-bis.	1A	-bis.	(<1A	-bis.	.	.
!	!	!LO:LB:g=original	!	!	!	!	!	!	!	!	!
=66	=66	=66	=66	=66	=66	=66	=66	=66	=66	=66-	=66-
!	!	!	!	!LO:TX:t=P:problem=kreska pseudotaktowa	!	!	!	!LO:TX:t=P:problem=kreska pseudotaktowa	!	!	!
!	!	!	!	!	!	!	!	!LO:TX:b:i:t=49.	!	!	!
2.A\	Quo-	2.A\	Quo-	00r	.	00r	.	1A,<)	.	2e\	-bis.
!	!	!	!	!	!	!	!	!	!	!LO:TX:t=P:problem=kreska pseudotaktowa	!
.	.	.	.	.	.	.	.	.	.	2r	.
!LO:TX:t=P:problem=kreska pseudotaktowa	!	!LO:TX:t=P:problem=kreska pseudotaktowa	!	!	!	!	!	!	!	!	!
4A\	-ni-	4A\	-ni-	.	.	.	.	.	.	.	.
!	!	!	!	!	!	!	!	!	!	!LO:TX:t=P:problem=kreska pseudotaktowa	!
2Gn,<\	-am	2Gn,<\	-am	.	.	.	.	2.e\	Quo-	1r	.
!LO:TX:t=P:problem=kreska pseudotaktowa	!	!LO:TX:t=P:problem=kreska pseudotaktowa	!	!	!	!	!	!	!	!	!
2E\	Tu	2E\	Tu	.	.	.	.	.	.	.	.
!	!	!	!	!	!	!	!	!LO:TX:t=P:problem=kreska pseudotaktowa	!	!	!
.	.	.	.	.	.	.	.	4e\	-ni-	.	.
=67	=67	=67	=67	=67-	=67-	=67-	=67-	=67	=67	=67	=67
2F#X\	so-	2F#X\	So-	.	.	.	.	2d\	-am	2.d\	Quo-
!LO:TX:t=P:problem=kreska pseudotaktowa	!	!LO:TX:t=P:problem=kreska pseudotaktowa	!	!	!	!	!	!LO:TX:t=P:problem=kreska pseudotaktowa	!	!	!
2G\	-l(us)	2Gn\	-lus	.	.	.	.	2B\	Tu	.	.
!	!	!	!	!	!	!	!	!	!	!LO:TX:t=P:problem=kreska pseudotaktowa	!
.	.	.	.	.	.	.	.	.	.	4d\	-ni-
2.A\	San-	2.A\	San-	.	.	.	.	4c\	so-	2.c/	-am
.	.	.	.	.	.	.	.	4d\	-l(us)	.	.
!	!	!	!	!	!	!	!	!LO:TX:t=P:problem=kreska pseudotaktowa	!	!	!
!	!	!	!	!	!	!	!	!LO:TX:a:t=P:problem=w źródle możliwa również ligatura	!	!	!
.	.	.	.	.	.	.	.	(<2e\	San-	.	.
!LO:TX:t=P:problem=kreska pseudotaktowa	!	!LO:TX:t=P:problem=kreska pseudotaktowa	!	!	!	!	!	!	!	!LO:TX:t=P:problem=kreska pseudotaktowa	!
4G\	.	4G\	.	.	.	.	.	.	.	4c/	Tu
!LO:LB:g=original	!	!	!	!	!	!	!	!LO:LB:g=original	!	!	!
=68	=68	=68	=68	=68-	=68-	=68-	=68-	=68	=68	=68	=68
4F\	.	4F\	.	2.A/	Quo-	2.A/	Quo-	2e\)	.	4f\	so-
4E\	.	4E\	.	.	.	.	.	.	.	4g\	-l(us)
!LO:TX:t=P:problem=kreska pseudotaktowa	!	!LO:TX:t=P:problem=kreska pseudotaktowa	!	!	!	!	!	!LO:TX:t=P:problem=kreska pseudotaktowa	!	!LO:TX:t=P:problem=kreska pseudotaktowa	!
2F\	.	2F\	.	.	.	.	.	2d,<\	-ctus	2a\	San-
!	!	!	!	!LO:TX:t=P:problem=kreska pseudotaktowa	!	!LO:TX:t=P:problem=kreska pseudotaktowa	!	!	!	!	!
.	.	.	.	4A/	-ni-	4A/	-ni-	.	.	.	.
!	!	!	!	!	!	!	!	!LO:TX:t=P:problem=kreska pseudotaktowa	!	!	!
2E,<\	-ctus	2E,<\	-ctus	2G/	-am	2G/	.	1e	Tu	2e\	.
!LO:TX:t=P:problem=kreska pseudotaktowa	!	!LO:TX:t=P:problem=kreska pseudotaktowa	!	!LO:TX:t=P:problem=kreska pseudotaktowa	!	!	!	!	!	!LO:TX:t=P:problem=kreska pseudotaktowa	!
2C/	Tu	2C/	Tu	2E/	Tu	2E/	-am	.	.	2g\	.
=69	=69	=69	=69	=69	=69	=69-	=69-	=69	=69	=69	=69
2D\	so-	2D\	so-	2F#X/	So-	2F#X/	.	2d\	so-	2d\	.
!LO:TX:t=P:problem=kreska pseudotaktowa	!	!LO:TX:t=P:problem=kreska pseudotaktowa	!	!LO:TX:t=P:problem=kreska pseudotaktowa	!	!LO:TX:t=P:problem=kreska pseudotaktowa	!	!LO:TX:t=P::problem=kreska pseudotaktowa&colon;między nutą a kropką	!	!LO:TX:t=P:problem=kreska pseudotaktowa	!
!	!	!	!	!	!	!	!	!	!	!LO:TX:a:t=P:problem=w źródle możliwa również ligatura	!
2E\	-l(us)	2E\	-lus	2G#X/	-lus	2G#X/	so-	2.c\	-l(us)	(<2c/	.
!	!	!	!	!LO:LB:g=original	!	!	!	!	!	!	!
!	!	!LO:TX:t=P:problem=kreska pseudotaktowa	!	!	!	!	!	!	!	!	!
1F	San-	1F	San-	2.A\	San-	2.A\	-l(us)	.	.	2c/)	.
.	.	.	.	.	.	.	.	4B\	.	.	.
!	!	!	!	!	!	!	!	!	!	!LO:TX:t=P:problem=kreska pseudotaktowa	!
.	.	.	.	.	.	.	.	1A\	San-	2A/	.
!	!	!	!	!LO:TX:t=P:problem=kreska pseudotaktowa	!	!	!	!	!	!	!
.	.	.	.	4B\	.	4B\	San-	.	.	.	.
=70-	=70-	=70	=70	=70	=70	=70-	=70-	=70-	=70-	=70	=70
!LO:TX:t=P:problem=kreska pseudotaktowa	!	!LO:TX:t=P:problem=kreska pseudotaktowa	!	!	!	!	!	!	!	!	!
1E	.	1E	.	2c\	.	2c\	.	.	.	1e	.
!	!	!	!	!LO:TX:t=P:problem=kreska pseudotaktowa	!	!	!	!LO:TX:t=P:problem=kreska pseudotaktowa	!	!	!
.	.	.	.	2B\	.	2B\	.	2G#X/	.	.	.
!	!	!	!	!LO:TX:t=P:problem=kreska pseudotaktowa	!	!LO:TX:t=P:problem=kreska pseudotaktowa	!	!	!	!	!
2AA,</	-ct(us)	2AA,</	-ct(us)	1A	-ctus	1A,<	-ctus	2c,<\	-ctus	2e\	-ctus!
!LO:TX:t=P:problem=kreska pseudotaktowa	!	!LO:TX:t=P:problem=kreska pseudotaktowa	!	!	!	!	!	!LO:TX:t=P:problem=kreska pseudotaktowa	!	!	!
!	!	!	!	!	!	!	!	!	!	!LO:TX:t=P:problem=kreska pseudotaktowa	!
2A\	Tu	2A\	Tu	.	.	.	.	2c\	Tu	2r	.
=71	=71	=71	=71	=71	=71	=71	=71	=71	=71	=71	=71
!	!	!	!	!	!	!	!	!	!	!LO:TX:t=P:problem=kreska pseudotaktowa	!
2A\	so-	2A\	so-	1r	.	1r	.	2c\	so-	0r	.
!LO:TX:t=P:problem=kreska pseudotaktowa	!	!LO:TX:t=P:problem=kreska pseudotaktowa	!	!	!	!	!	!LO:TX:t=P:problem=kreska pseudotaktowa	!	!	!
2G#X\	-l(us)	2G#X\	-lus	.	.	.	.	2B\	-l(us)	.	.
!	!	!	!	!	!	!	!	!LO:TX:a:i:t=c.	!	!	!
2.A\	Do-	2.A\	Do-	2r	.	2r	.	2.c\	Do-	.	.
!	!	!	!	!LO:TX:t=P:problem=kreska pseudotaktowa	!	!	!	!	!	!	!
.	.	.	.	2A\	Tu	2A/	Tu	.	.	.	.
!	!	!LO:TX:t=P:problem=kreska pseudotaktowa	!	!	!	!	!	!LO:TX:t=P:problem=kreska pseudotaktowa	!	!	!
4A\	-mi-	4A\	-mi-	.	.	.	.	4c\	-mi-	.	.
!	!	!	!	!	!	!	!	!	!	!LO:LB:g=original	!
=72-	=72-	=72	=72	=72	=72	=72-	=72-	=72	=72	=72	=72
!LO:TX:t=P:problem=kreska pseudotaktowa	!	!LO:TX:t=P:problem=kreska pseudotaktowa	!	!	!	!	!	!LO:TX:t=P:problem=kreska pseudotaktowa	!	!	!
!	!	!	!	!	!	!	!	!	!	!LO:TX:a:t=P:problem=w źródle pauza słabo widoczna	!
1E,<	-n(us)	1E,<	-n(us)	2A/	so-	2A/	so-	1B	-n(us)	1r	.
!	!	!	!	!LO:TX:t=P:problem=kreska pseudotaktowa	!	!LO:TX:b:t=P:problem=# below	!	!	!	!	!
.	.	.	.	2G#X/	-l(us)	2G#X/	-l(us)	.	.	.	.
2r	.	2r	.	2.A/	Do-	2.A/	Do-	2r	.	2r	.
!LO:TX:t=P:problem=kreska pseudotaktowa	!	!LO:TX:t=P:problem=kreska pseudotaktowa	!	!	!	!	!	!LO:TX:t=P:problem=kreska pseudotaktowa	!	!LO:TX:t=P:problem=kreska pseudotaktowa	!
2A\	Tu	2A\	Tu	.	.	.	.	2c\	Tu	2e\	Tu
.	.	.	.	4A/	-mi-	4A/	-mi-	.	.	.	.
=73	=73	=73	=73	=73-	=73-	=73-	=73-	=73	=73	=73	=73
!	!	!	!	!LO:TX:t=P:problem=kreska pseudotaktowa	!	!LO:TX:t=P:problem=kreska pseudotaktowa	!	!	!	!	!
2A\	so-	2A\	so-	1E	-n(us)	1E	-n(us)	2c\	so-	2e\	so-
4G#X\	-l(us)	4G#X\	-l(us)	.	.	.	.	4B\	lus	4e\	-lus
!LO:TX:t=P:problem=kreska pseudotaktowa	!	!LO:TX:t=P:problem=kreska pseudotaktowa	!	!	!	!	!	!LO:TX:t=P:problem=kreska pseudotaktowa	!	!LO:TX:t=P:problem=kreska pseudotaktowa	!
4G#\	al-	4G#\	al-	.	.	.	.	4B\	al-	4e\	al-
!	!	!LO:LB:g=original	!	!	!	!	!	!	!	!	!
2.A\	-tiſ-	2.A\	-tiſ-	2r	.	2r	.	2.c\	-tiſ-	2.e\	-tiſ-
!	!	!	!	!LO:TX:t=P:problem=kreska pseudotaktowa	!	!	!	!	!	!	!
.	.	.	.	2A/	Tu	2A/	Tu	.	.	.	.
!LO:TX:t=P:problem=kreska pseudotaktowa	!	!LO:TX:t=P:problem=kreska pseudotaktowa	!	!	!	!	!	!LO:TX:t=P:problem=kreska pseudotaktowa	!	!LO:TX:t=P:problem=kreska pseudotaktowa	!
4A\	-si-	4A\	-si-	.	.	.	.	4c\	-si-	4e\	-si-
=74	=74	=74	=74	=74	=74	=74-	=74-	=74	=74	=74	=74
2E\	-m(us)	2E,<\	-m(us)	2A/	so-	2A/	so-	2B,<\	-m(us)	2e,<\	-mus
*	*	*	*	*	*	*	*	*	*	*	*ij
!LO:TX:t=P:problem=kreska pseudotaktowa	!	!LO:TX:t=P:problem=kreska pseudotaktowa	!	!LO:TX:b:t=P:problem=# below	!	!LO:TX:b:t=P:problem=# below	!	!LO:TX:t=P:problem=kreska pseudotaktowa	!	!LO:TX:t=P:problem=kreska pseudotaktowa	!
2E\	al-	2E\	al-	2G#X/	-l(us)	2G#X/	-l(us)	2e\	al-	2e\	al-
2.A\	-tiſ-	2.AA/	-tiſ-	2.A/	al-	2.A/	al-	2.c\	-tiſ-	2.e\	-tiſ-
!	!	!LO:TX:t=P:problem=kreska pseudotaktowa	!	!	!	!	!	!LO:TX:t=P:problem=kreska pseudotaktowa	!	!	!
4AA/	-si-	4AA/	-si-	4A/	-tiſ-	4A/	-tiſ-	4c\	-si-	4e\	-si-
=75-	=75-	=75	=75	=75-	=75-	=75-	=75-	=75	=75	=75-	=75-
!	!	!	!	!	!	!LO:TX:t=P:problem=kreska pseudotaktowa	!	!	!	!	!
!	!	!	!	!LO:TX:t=P:problem=w źródle dwie sylaby na jeden dźwięk	!	!LO:TX:t=P:problem=w źródle dwie sylaby na jeden dźwięk	!	!	!	!	!
!LO:TX:t=P:problem=kreska pseudotaktowa	!	!LO:TX:t=P:problem=kreska pseudotaktowa	!	!LO:TX:t=P:problem=kreska pseudotaktowa	!	!LO:TX:b:t=P:problem=# below	!	!LO:TX:t=P:problem=kreska pseudotaktowa	!	!LO:TX:t=P:problem=kreska pseudotaktowa	!
1E	-m(us)	1E	-m(us)	1G#X,<	-sim(us)	1G#X	-sim(us)	1B,<	-m(us)	1e	-mus
*	*	*	*	*	*	*	*	*	*	*	*Xij
!LO:LB:g=original	!	!	!	!	!	!LO:LB:g=original	!	!LO:LB:g=original	!	!	!
!	!	!	!	!LO:TX:t=P:problem=kreska pseudotaktowa	!	!	!	!	!	!	!
4C/	JE-	(<4C/	JE-	1c	Je-	1c	Je-	1.e	JE-	(>4e\	JE-
4D/	.	4D/	.	.	.	.	.	.	.	4f\	.
4E/	.	4E/	.	.	.	.	.	.	.	4g\	.
!	!	!LO:TX:t=P:problem=kreska pseudotaktowa	!	!	!	!	!	!	!	!LO:TX:t=P:problem=kreska pseudotaktowa	!
4F/	.	4F/)	.	.	.	.	.	.	.	4a\)	.
=76-	=76-	=76	=76	=76	=76	=76-	=76-	=76-	=76-	=76	=76
4G\	.	(>4G\	.	2c\	-su	2c\	-zu	.	.	2d\	.
4A\	.	4A\	.	.	.	.	.	.	.	.	.
!	!	!	!	!	!	!	!	!LO:TX:t=P:problem=kreska pseudotaktowa	!	!	!
4B\	.	4B\)	.	1B	Chri-	1B	.	2d\	-SU	2g\	-su
!LO:TX:t=P:problem=kreska pseudotaktowa	!	!LO:TX:t=P:problem=kreska pseudotaktowa	!	!	!	!	!	!	!	!	!
4G\	.	4G\	.	.	.	.	.	.	.	.	.
!	!	!	!	!	!	!	!	!LO:TX:t=P:problem=kreska pseudotaktowa	!	!LO:TX:t=P:problem=kreska pseudotaktowa	!
4A\	.	4A\	.	.	.	.	.	(>1c	Chri-	1e,<	.
4G\	.	4G\	.	.	.	.	.	.	.	.	.
(>4F\	-su	(>4F\	-su	1A\	.	1A\	.	.	.	.	.
!	!	!LO:TX:t=P:problem=kreska pseudotaktowa	!	!	!	!	!	!	!	!	!
4E\)	.	4E\)	.	.	.	.	.	.	.	.	.
=77-	=77-	=77	=77	=77-	=77-	=77-	=77-	=77	=77	=77	=77
!	!	!	!	!	!	!	!	!LO:TX:t=P:problem=kreska pseudotaktowa	!	!	!
2D\	X-	(>2D\	Chri-	.	.	.	.	1B)	.	(>2f\	Chri-
!	!	!	!	!	!	!LO:TX:t=P:problem=kreska pseudotaktowa	!	!	!	!	!
!LO:TX:t=P:problem=kreska pseudotaktowa	!	!LO:TX:t=P:problem=kreska pseudotaktowa	!	!LO:TX:t=P:problem=kreska pseudotaktowa	!	!LO:TX:b:t=P:problem=# below	!	!	!	!LO:TX:t=P:problem=kreska pseudotaktowa	!
2E\	.	2E\)	.	2G#X/	.	2G#X/	X-	.	.	2e\)	.
2AA,</	-ste	2AA,</	-ste	2A,</	-ste.	2A,</	-te	2c#X\	-ste!	2e,<\	-ste
!LO:TX:t=P:problem=kreska pseudotaktowa	!	!LO:TX:t=P:problem=kreska pseudotaktowa	!	!	!	!	!	!LO:TX:t=P:problem=kreska pseudotaktowa	!	!LO:TX:t=P:problem=kreska pseudotaktowa	!
!	!	!	!	!	!	!	!	!LO:TX:b:i:t=23	!	!	!
2AA/	Cum	2AA/	Cum	2A/	Cum	2A/	Cum	2r	.	2c/	Cum
=78	=78	=78	=78	=78-	=78-	=78-	=78-	=78	=78	=78	=78
2BB/	S(an)-	2BB/	S(an)-	2Gn/	San-	2Gn/	S(an)-	1r	.	2d\	San-
!LO:TX:b:t=P:problem=# below	!	!	!	!	!	!	!	!	!	!	!
!LO:TX:t=P:problem=kreska pseudotaktowa	!	!LO:TX:t=P:problem=kreska pseudotaktowa	!	!LO:TX:t=P:problem=kreska pseudotaktowa	!	!	!	!	!	!LO:TX:t=P:problem=kreska pseudotaktowa	!
2C#X/	-cto	2C#X/	-cto	2E/	-cto	2E/	-cto	.	.	2e\	-cto
!	!	!	!	!LO:PB:g=original	!	!	!	!	!	!	!
2.D\	Spi-	2.D\	Spi-	2.Fn/	Spi-	2.Fn/	Spi-	2r	.	2.d\	Spi-
!	!	!	!	!	!	!	!	!LO:TX:t=P:problem=kreska pseudotaktowa	!	!	!
.	.	.	.	.	.	.	.	2d\	Cum	.	.
!LO:TX:t=P:problem=kreska pseudotaktowa	!	!	!	!LO:TX:t=P:problem=kreska pseudotaktowa	!	!	!	!	!	!	!
4D\	-ri-	4D\	-ri-	4F/	-ri-	4F/	-ri-	.	.	4d\	-ri-
=79	=79	=79-	=79-	=79	=79	=79-	=79-	=79	=79	=79-	=79-
!LO:TX:t=P:problem=kreska pseudotaktowa	!	!LO:TX:t=P:problem=kreska pseudotaktowa	!	!	!	!	!	!	!	!LO:TX:t=P:problem=kreska pseudotaktowa	!
1AA	-tu	1AA	-tu	2E,</	-tu	2E,</	-tu	2c\	S(an)-	1e	-tu
!	!	!	!	!LO:TX:t=P:problem=kreska pseudotaktowa	!	!LO:TX:t=P:problem=kreska pseudotaktowa	!	!LO:TX:t=P:problem=kreska pseudotaktowa	!	!	!
.	.	.	.	2A/	in	2A\	in	2A\	-cto	.	.
*	*	*custos:D	*	*	*	*	*	*	*	*	*
!	!	!LO:TX:t=P:problem=kreska pseudotaktowa	!	!	!	!	!	!	!	!	!
!	!	!	!	!	!	!	!	!	!	!LO:TX:t=P:problem=kreska pseudotaktowa	!
1rB	.	1r	.	2G/	glo-	2G/	glo-	2.B\	Spi-	1r	.
.	.	.	.	4G/	-ri-	4G/	-(ri)-	.	.	.	.
!	!	!	!	!	!	!	!	!LO:TX:t=P:problem=kreska pseudotaktowa	!	!	!
.	.	.	.	4G/	-a	4G/	-a	4B\	-ri-	.	.
!	!	!LO:PB:g=original	!	!	!	!	!	!	!	!LO:LB:g=original	!
=80-	=80-	=80	=80	=80-	=80-	=80-	=80-	=80	=80	=80	=80
!	!	!	!	!LO:TX:t=P:problem=kreska pseudotaktowa	!	!	!	!	!	!	!
2r	.	2r	.	1Fn	De-	1Fn	De-	2A\	-tu	2r	.
*	*ij	*	*	*	*	*	*	*	*	*	*
!LO:TX:t=P:problem=kreska pseudotaktowa	!	!LO:TX:t=P:problem=kreska pseudotaktowa	!	!	!	!	!	!LO:TX:t=P:problem=kreska pseudotaktowa	!	!LO:TX:t=P:problem=kreska pseudotaktowa	!
2D\	Cum	2D/	Cum	.	.	.	.	2B\	in	2d\	Cum
!	!	!	!	!	!	!	!	!LO:TX:t=P::problem=kreska pseudotaktowa&colon;między nutą a kropką	!	!	!
2C/	San-	2Cn/	San-	2E,</	-i	2E,</	-i.	1.A	glo-	2e\	San-
!LO:TX:t=P:problem=kreska pseudotaktowa	!	!LO:TX:t=P:problem=kreska pseudotaktowa	!	!LO:TX:t=P:problem=kreska pseudotaktowa	!	!	!	!	!	!LO:TX:t=P:problem=kreska pseudotaktowa	!
2AA/	-cto	2AA/	-cto	2e\	Cum	2e\	Cum	.	.	2a\	-cto
=81	=81	=81	=81	=81	=81	=81-	=81-	=81	=81	=81	=81
2.BB/	Spi-	2.BB/	Spi-	2d\	San-	2d\	S(an)-	.	.	2.d\	Spi-
!	!	!	!	!LO:TX:t=P:problem=kreska pseudotaktowa	!	!LO:TX:t=P:problem=kreska pseudotaktowa	!	!LO:TX:t=P:problem=kreska pseudotaktowa	!	!	!
.	.	.	.	2B\	-cto	2B\	-cto	2G#X/	-ri-	.	.
!LO:TX:t=P:problem=kreska pseudotaktowa	!	!LO:TX:t=P:problem=kreska pseudotaktowa	!	!	!	!	!	!	!	!LO:TX:t=P:problem=kreska pseudotaktowa	!
4BB/	-ri-	4BB/	-ri-	.	.	.	.	.	.	4d\	-ri-
!	!	!	!	!	!	!	!	!LO:TX:t=P:problem=kreska pseudotaktowa	!	!	!
2AA,</	-tu	2AA,</	-tu	2.c\	Spi-	2.c\	Spi-	1A,<	-a	2e,<\	-tu
*	*Xij	*	*	*	*	*	*	*	*	*	*
!LO:TX:t=P:problem=kreska pseudotaktowa	!	!LO:TX:t=P:problem=kreska pseudotaktowa	!	!	!	!	!	!	!	!LO:TX:t=P:problem=kreska pseudotaktowa	!
2A\	in	2A\	in	.	.	.	.	.	.	2c/	in
!	!	!	!	!LO:TX:t=P:problem=kreska pseudotaktowa	!	!	!	!	!	!	!
.	.	.	.	4c\	-ri-	4c\	-(ri-	.	.	.	.
=82	=82	=82	=82	=82	=82	=82-	=82-	=82	=82	=82	=82
!	!	!	!	!	!	!	!	!LO:TX:t=P:problem=kreska pseudotaktowa	!	!	!
2G\	glo-	2Gn\	glo-	1B,<	-tu)	1B,<	-tu)	1r	.	2d\	glo-
4G\	-ri-	4G\	-ri-	.	.	.	.	.	.	4d\	-ri-
!LO:TX:t=P:problem=kreska pseudotaktowa	!	!LO:TX:t=P:problem=kreska pseudotaktowa	!	!	!	!	!	!	!	!LO:TX:t=P:problem=kreska pseudotaktowa	!
4G\	-a	4G\	-a	.	.	.	.	.	.	4e\	-a
*	*	*	*	*	*	*	*ij	*	*	*	*
!LO:TX:t=P:problem=kreska pseudotaktowa	!	!LO:TX:t=P:problem=kreska pseudotaktowa	!	!LO:TX:t=P:problem=kreska pseudotaktowa	!	!	!	!	!	!	!
(>1F	De-	1F	De-	1A	Cum	1A	Cum	2r	.	2f\	De-
!	!	!	!	!	!	!	!	!LO:TX:t=P:problem=kreska pseudotaktowa	!	!LO:TX:t=P:problem=kreska pseudotaktowa	!
.	.	.	.	.	.	.	.	2A\	Cum	2a\	-i
=83	=83	=83	=83	=83	=83	=83-	=83-	=83	=83	=83	=83
!LO:TX:t=P:problem=kreska pseudotaktowa	!	!LO:TX:t=P:problem=kreska pseudotaktowa	!	!	!	!	!	!	!	!	!
1E)	-i	1E	.	2G/	S(an)-	2G/	S(an)-	2B\	S(an)-	(>2e\	Pa-
!	!	!	!	!	!	!	!	!LO:TX:t=P:problem=kreska pseudotaktowa	!	!	!
.	.	.	.	2E/	-cto	2E/	-cto	2c#X\	-cto	2g\)	.
!LO:LB:g=original	!	!	!	!	!	!	!	!	!	!	!
!	!	!	!	!LO:SIC:v:s=2.F#/	!	!LO:SIC:v:s=2.F#/	!	!	!	!	!
2D,<\	.	2D,<\	-i;	2.F/	Spi-	2.F/	Spi-	2.d\	Spi-	2f#X,<\	-tris.
!LO:TX:t=P:problem=kreska pseudotaktowa	!	!LO:TX:t=P:problem=kreska pseudotaktowa	!	!	!	!	!	!	!	!LO:TX:t=P:problem=kreska pseudotaktowa	!
2D\	Cum	2D\	Cum	.	.	.	.	.	.	2d\	Cum
!	!	!	!	!LO:TX:t=P:problem=kreska pseudotaktowa	!	!	!	!LO:TX:t=P:problem=kreska pseudotaktowa	!	!	!
!	!	!	!	!LO:SIC:v:s=4F#/	!	!LO:SIC:v:s=4F#/	!	!	!	!	!
.	.	.	.	4F/	-ri-	4F/	-(ri-	4d\	-ri-	.	.
=84	=84	=84	=84	=84	=84	=84-	=84-	=84	=84	=84	=84
!	!	!	!	!	!	!	!	!LO:TX:t=P:problem=kreska pseudotaktowa	!	!	!
2E\	S(an)-	2E\	S(an)-	2G,</	-tu	2G,</	-tu)	1cn	-tu	2g\	San-
*	*	*	*	*	*	*	*Xij	*	*	*	*
!LO:TX:t=P:problem=kreska pseudotaktowa	!	!LO:TX:t=P:problem=kreska pseudotaktowa	!	!LO:TX:t=P:problem=kreska pseudotaktowa	!	!LO:TX:t=P:problem=kreska pseudotaktowa	!	!	!	!LO:TX:t=P:problem=kreska pseudotaktowa	!
2F#X\	-cto	2F#X\	-cto	2A/	in	2A/	in	.	.	2d\	-cto
!	!	!	!	!	!	!	!	!LO:LB:g=original	!	!	!
2.G\	Spi-	2.G\	Spi-	2.B\	glo-	2.B\	glo-	2r	.	2.d\	Spi-
*	*	*	*	*	*	*	*	*	*ij	*	*
!	!	!	!	!	!	!	!	!LO:TX:t=P:problem=kreska pseudotaktowa	!	!	!
.	.	.	.	.	.	.	.	2G/	Cum	.	.
!	!	!	!	!	!	!	!	!	!	!LO:TX:t=P:problem=kreska pseudotaktowa	!
4G\	-ri-	4G\	-ri-	4B\	-ri-	4B\	-ri-	.	.	4d\	-ri-
=85-	=85-	=85-	=85-	=85-	=85-	=85-	=85-	=85	=85	=85	=85
!LO:TX:t=P:problem=kreska pseudotaktowa	!	!LO:TX:t=P:problem=kreska pseudotaktowa	!	!	!	!	!	!	!	!LO:TX:t=P:problem=kreska pseudotaktowa	!
1D	-tu	1D	-tu	4A,<\	-a	4A\	-a	2F#X/	S(an)-	1d,<	-tu
*	*	*	*	*	*	*	*ij	*	*	*	*
.	.	.	.	4A\	in	4A\	in	.	.	.	.
!	!	!	!	!	!	!	!	!LO:TX:t=P:problem=kreska pseudotaktowa	!	!	!
.	.	.	.	1d	glo-	1d	glo-	2D/	-cto	.	.
!	!	!	!	!	!	!	!	!	!	!LO:TX:t=P:problem=kreska pseudotaktowa	!
2r	.	2r	.	.	.	.	.	2.E/	Spi-	1r	.
*	*ij	*	*ij	*	*	*	*	*	*	*	*
!	!	!	!	!	!	!LO:TX:a:t=P:problem=# above	!	!	!	!	!
2G\	Cum	2G\	Cum	2c#X\	-ri-	2c#Xi\	-ri-	.	.	.	.
!	!	!	!	!	!	!	!	!LO:TX:t=P:problem=kreska pseudotaktowa	!	!	!
.	.	.	.	.	.	.	.	4E/	-ri-	.	.
!	!	!	!	!	!	!	!	!	!	!LO:PB:g=original	!
=86-	=86-	=86-	=86-	=86-	=86-	=86-	=86-	=86	=86	=86	=86
!	!	!	!	!LO:TX:t=P:problem=kreska pseudotaktowa	!	!LO:TX:t=P:problem=kreska pseudotaktowa	!	!	!	!	!
2F#X\	S(an)-	2F#X\	S(an)-	1d	-a	1d	-a	4D,</	-tu	2r	.
*	*	*	*	*	*	*	*Xij	*	*Xij	*	*
.	.	.	.	.	.	.	.	4D/	in	.	.
!LO:TX:t=P:problem=kreska pseudotaktowa	!	!LO:TX:t=P:problem=kreska pseudotaktowa	!	!	!	!	!	!	!	!LO:TX:t=P:problem=kreska pseudotaktowa	!
2D\	-cto	2D\	-cto	.	.	.	.	1d	glo-	2d\	Cum
!	!	!	!	!LO:LB:g=original	!	!	!	!	!	!	!
!	!	!	!	!LO:TX:t=P:problem=kreska pseudotaktowa	!	!	!	!	!	!	!
2.E\	Spi-	2.E\	Spi-	1G	Cum	1G	Cum	.	.	2B/	S(anc)-
!	!	!	!	!	!	!	!	!LO:TX:t=P:problem=kreska pseudotaktowa	!	!LO:TX:t=P:problem=kreska pseudotaktowa	!
.	.	.	.	.	.	.	.	2c#X\	-ri-	2G/	-to
!LO:TX:t=P:problem=kreska pseudotaktowa	!	!LO:TX:t=P:problem=kreska pseudotaktowa	!	!	!	!	!	!	!	!	!
4E\	-ri-	4E\	-ri-	.	.	.	.	.	.	.	.
=87	=87	=87	=87	=87	=87	=87-	=87-	=87	=87	=87	=87
!LO:TX:t=P:problem=kreska pseudotaktowa	!	!LO:TX:t=P:problem=kreska pseudotaktowa	!	!	!	!	!	!	!	!	!
1D	-tu	1D	-tu	2F#X/	San-	2F#X/	S(an-	2d,<\	-a	2.A/	Spi-
!	!	!	!	!LO:TX:t=P:problem=kreska pseudotaktowa	!	!	!	!LO:TX:t=P:problem=kreska pseudotaktowa	!	!	!
.	.	.	.	2D/	-cto	2D/	-cto)	2d\	in	.	.
!	!	!	!	!	!	!	!	!	!	!LO:TX:t=P:problem=kreska pseudotaktowa	!
.	.	.	.	.	.	.	.	.	.	4A/	-ri-
*	*Xij	*	*Xij	*	*	*	*	*	*	*	*
!	!	!LO:TX:t=P:problem=kreska pseudotaktowa	!	!	!	!	!	!	!	!	!
0r	.	0r	.	2.E/	Spi-	2.E/	Spi-	2c\	glo-	2G,</	-tu
.	.	.	.	.	.	.	.	4c\	-ri-	4G/	Spi-
!	!	!	!	!LO:TX:t=P:problem=kreska pseudotaktowa	!	!LO:TX:b:t=P:problem=# below	!	!LO:TX:t=P:problem=kreska pseudotaktowa	!	!LO:TX:t=P:problem=kreska pseudotaktowa	!
.	.	.	.	4F#X/	-ri-	4F#X/	-ri-	4c\	-a	4A/	.
=88-	=88-	=88-	=88-	=88	=88	=88-	=88-	=88	=88	=88	=88
.	.	.	.	4G/	-tu	4G/	-(tu)	1B	De-	2B/	.
.	.	.	.	4D/	in	4D/	in	.	.	.	.
!	!	!	!	!	!	!	!	!	!	!LO:TX:t=P:problem=kreska pseudotaktowa	!
.	.	.	.	1G	glo-	1G	glo-	.	.	2d\	-ri-
!	!	!LO:LB:g=original	!	!	!	!	!	!	!	!	!
2r	.	2r	.	.	.	.	.	2A,</	-i	2d,<\	-tu
*	*	*	*	*	*	*	*	*	*ij	*	*
!LO:TX:t=P:problem=kreska pseudotaktowa	!	!LO:TX:t=P:problem=kreska pseudotaktowa	!	!LO:TX:t=P:problem=kreska pseudotaktowa	!	!LO:TX:t=P:problem=kreska pseudotaktowa	!	!	!	!LO:TX:t=P:problem=kreska pseudotaktowa	!
2D\	Cum	2D/	Cum	2F/	-ri-	2Fny/	-ri-	4A/	De-	2d\	in
!	!	!	!	!	!	!	!	!LO:TX:t=P:problem=kreska pseudotaktowa	!	!	!
.	.	.	.	.	.	.	.	4A/	-i	.	.
*	*	*	*	*	*	*	*	*	*Xij	*	*
=89	=89	=89	=89	=89	=89	=89	=89	=89	=89	=89	=89
2C/	S(an)-	2C/	S(an)-	2E,</	-a	2E,</	-a	4c\	Pa-	2e\	glo-
.	.	.	.	.	.	.	.	4G/	.	.	.
*	*	*	*	*	*	*	*ij	*	*	*	*
!	!	!LO:TX:t=P:problem=kreska pseudotaktowa	!	!LO:TX:t=P:problem=kreska pseudotaktowa	!	!	!	!	!	!	!
2AA/	-cto	2AA/	-cto	2e\	Cum	2e\	Cum	1A	-tris	4a\	-ri-
!	!	!	!	!	!	!	!	!	!	!LO:TX:t=P:problem=kreska pseudotaktowa	!
.	.	.	.	.	.	.	.	.	.	4g\	-a
2.BB/	Spi-	2.BB/	Spi-	2d\	S(an)-	2d\	S(an-	.	.	2f\	De-
!	!	!	!	!LO:TX:t=P:problem=kreska pseudotaktowa	!	!	!	!LO:TX:t=P:problem=kreska pseudotaktowa	!	!LO:TX:t=P:problem=kreska pseudotaktowa	!
.	.	.	.	2B\	-cto	2B\	-cto)	2G#X/	a-	2d\	.
!LO:TX:t=P:problem=kreska pseudotaktowa	!	!LO:TX:t=P:problem=kreska pseudotaktowa	!	!	!	!	!	!	!	!	!
4BB/	-ri-	4BB/	-ri-	.	.	.	.	.	.	.	.
=90	=90	=90	=90	=90	=90	=90-	=90-	=90	=90	=90	=90
2AA,</	-tu	2AA,</	-tu	2.c\	Spi-	2.c\	Spi-	2A,</	-men	2e,<\	-i
!LO:TX:t=P:problem=kreska pseudotaktowa	!	!LO:TX:t=P:problem=kreska pseudotaktowa	!	!	!	!	!	!LO:TX:t=P:problem=kreska pseudotaktowa	!	!	!
2AA/	in	2AA/	in	.	.	.	.	2A/	in	(>4e\	in
!	!	!	!	!	!	!	!	!	!	!LO:TX:t=P:problem=kreska pseudotaktowa	!
.	.	.	.	4c\	-ri-	4c\	-ri-	.	.	4f\)	.
!	!	!	!	!LO:TX:t=P:problem=kreska pseudotaktowa	!	!LO:TX:t=P:problem=kreska pseudotaktowa	!	!	!	!	!
2BB/	glo-	2BB/	glo-	1B	-(tu)	1B	-(tu)	2G/	glo-	2g\	glo-
4BB/	-ri-	4BB/	-ri-	.	.	.	.	4G/	-ri-	4d\	-ri-
!LO:TX:t=P:problem=kreska pseudotaktowa	!	!LO:TX:t=P:problem=kreska pseudotaktowa	!	!	!	!	!	!LO:TX:t=P:problem=kreska pseudotaktowa	!	!LO:TX:t=P:problem=kreska pseudotaktowa	!
4C/	-a	4C/	-a	.	.	.	.	4G/	-a	4e\	-a
*	*	*	*	*	*	*	*Xij	*	*	*	*
!	!	!	!	!	!	!LO:LB:g=original	!	!	!	!	!
=91	=91	=91	=91	=91	=91	=91	=91	=91	=91	=91	=91
(>4D\	De-	4D\	De-	2r	.	2r	.	(<4Fn/	De-	(>4a\	De-
4E\)	.	4E\	.	.	.	.	.	4G/)	.	4g\	.
!	!	!	!	!LO:TX:t=P:problem=kreska pseudotaktowa	!	!LO:TX:t=P:problem=kreska pseudotaktowa	!	!	!	!	!
(>4Fn\	-i	(>4Fn\	-i	2d\	in	2d\	in	(<4A/	-i	4f\	.
*custos:A	*	*	*	*	*	*	*	*	*	*	*
!LO:TX:t=P:problem=kreska pseudotaktowa	!	!LO:TX:t=P:problem=kreska pseudotaktowa	!	!	!	!	!	!LO:TX:t=P:problem=kreska pseudotaktowa	!	!	!
4G\)	.	4G\)	.	.	.	.	.	4B/)	.	8e\L	.
!	!	!	!	!	!	!	!	!	!	!LO:TX:t=P:problem=kreska pseudotaktowa	!
.	.	.	.	.	.	.	.	.	.	8d\J)	.
!LO:LB:g=original	!	!	!	!	!	!	!	!	!	!	!
2.A\	Pa-	2.A\	Pa-	2c\	glo-	2c\	glo-	4c\	Pa-	2e\	-i
.	.	.	.	.	.	.	.	4d\	.	.	.
!	!	!	!	!	!	!	!	!LO:TX:t=P:problem=kreska pseudotaktowa	!	!	!
.	.	.	.	4c\	-ri-	4c\	-ri-	2e\	.	4e\	Pa-
!LO:TX:t=P:problem=kreska pseudotaktowa	!	!LO:TX:t=P:problem=kreska pseudotaktowa	!	!LO:TX:t=P:problem=kreska pseudotaktowa	!	!LO:TX:t=P:problem=kreska pseudotaktowa	!	!	!	!LO:TX:t=P:problem=kreska pseudotaktowa	!
4G\	.	4G\	.	4B\	-a	4B\	-a	.	.	4g\	.
!	!	!	!	!	!	!	!	!LO:PB:g=original	!	!	!
=92	=92	=92	=92	=92	=92	=92	=92	=92	=92	=92	=92
(>4F\	.	4F\	.	4A\	De-	4A\	De-	2d,<\	-tris	4a\	.
4E\	.	4E\	.	4B\	-i	4B\	-i	.	.	4g\	.
!	!	!	!	!	!	!LO:TX:t=P:problem=kreska pseudotaktowa	!	!LO:TX:t=P::problem=kreska pseudotaktowa&colon;między nutą a kropką	!	!	!
2D\)	.	2D\	.	2.B\	Pa-	2B\	Pa-	2.d\	a-	2f\	.
!LO:TX:t=P:problem=kreska pseudotaktowa	!	!LO:TX:t=P:problem=kreska pseudotaktowa	!	!	!	!	!	!	!	!	!
1F,<	-tris	1F,<	-tris	.	.	2A,<\	-tris	.	.	2d\	-tris
.	.	.	.	4A\	.	.	.	4c\	.	.	.
.	.	.	.	1d\	-tris	1d\	a-	4B\	.	2a,<\	.
!	!	!	!	!	!	!	!	!LO:TX:t=P:problem=kreska pseudotaktowa	!	!	!
.	.	.	.	.	.	.	.	4A\	.	.	.
=93	=93	=93	=93	=93-	=93-	=93-	=93-	=93	=93	=93-	=93-
0E	a-	0E	a-	.	.	.	.	2G#X/	.	0e	a-
.	.	.	.	2c\	.	2c\	.	1A	.	.	.
.	.	.	.	1B	a-	1B	.	.	.	.	.
.	.	.	.	.	.	.	.	2G#X/	.	.	.
=94-	=94-	=94-	=94-	=94-	=94-	=94-	=94-	=94-	=94-	=94-	=94-
0AA;>	-men.	0AA;>	-men.	0c#X;>	-men	0c#X;>	-men	0A;>	-men	0e;>	-men
==	==	==	==	==	==	==	==	==	==	==	==
*-	*-	*-	*-	*-	*-	*-	*-	*-	*-	*-	*-
!!!system-decoration: [(s1,s2,s3,s4,s5,s6)]
!!!RDF**kern: > = above
!!!RDF**kern: < = below
!!!RDF**kern: | = vertical stroke
!!!RDF**kern: N = linked
!!!RDF**kern: i = editorial accidental
!!!RDF**kern: l = terminal long
!!!EED: Wojciech Jakubiak-Danek
!!!EEV: 2021-07-24
!!!ENC: Tomasz Grochalski
!!!END: 2021-07-02
